; generated by Slic3r 1.3.1-dev on 2018-10-26 at 10:58:49

; external perimeters extrusion width = 0.55mm (3.90mm^3/s)
; perimeters extrusion width = 0.58mm (5.89mm^3/s)
; infill extrusion width = 0.58mm (11.78mm^3/s)
; solid infill extrusion width = 0.58mm (11.78mm^3/s)
; top infill extrusion width = 0.58mm (9.82mm^3/s)
; support material extrusion width = 0.55mm (11.14mm^3/s)

;M104 S200  ; set temperature
G28                  ; home all axes
M501
G1 Z5 F5000 ; lift nozzle
;;M190 S65    ; set bed temperature
; Filament gcode

G21 ; set units to millimeters
G90 ; use absolute coordinates
M82 ; use absolute distances for extrusion
G92 E0
G92 E0
G1 E-1.00000 F1800.00000
G92 E0
G1 Z21.575 F7800.000
G1 X100.095 Y99.258 F7800.000
G1 E1.00000 F1800.00000
G1 F1800
G1 X100.257 Y99.292 E1.01352
G1 X100.404 Y99.363 E1.02684
G1 X100.610 Y99.557 E1.04991
G1 X100.730 Y99.812 E1.07299
G1 X100.748 Y100.095 E1.09606
G1 X100.661 Y100.363 E1.11913
G1 X100.481 Y100.581 E1.14220
G1 X100.233 Y100.717 E1.16527
G1 X99.953 Y100.753 E1.18834
G1 X99.679 Y100.682 E1.21142
G1 X99.450 Y100.516 E1.23449
G1 X99.299 Y100.278 E1.25756
G1 X99.246 Y100.000 E1.28063
G1 X99.299 Y99.722 E1.30370
G1 X99.450 Y99.484 E1.32678
G1 X99.679 Y99.318 E1.34984
G1 X99.859 Y99.259 E1.36528
G1 X100.020 Y99.255 E1.37847
G1 X100.116 Y98.767 F7800.000
G1 F1800
G1 X100.400 Y98.821 E1.40204
G1 X100.668 Y98.948 E1.42626
G1 X100.794 Y99.040 E1.43903
G1 X101.008 Y99.268 E1.46452
G1 X101.092 Y99.400 E1.47730
G1 X101.207 Y99.690 E1.50279
G1 X101.246 Y100.000 E1.52829
G1 X101.236 Y100.156 E1.54106
G1 X101.207 Y100.310 E1.55384
G1 X101.092 Y100.600 E1.57933
G1 X100.908 Y100.853 E1.60483
G1 X100.794 Y100.960 E1.61760
G1 X100.668 Y101.052 E1.63038
G1 X100.385 Y101.185 E1.65587
G1 X100.233 Y101.224 E1.66865
G1 X99.922 Y101.244 E1.69414
G1 X99.615 Y101.185 E1.71964
G1 X99.469 Y101.127 E1.73241
G1 X99.206 Y100.960 E1.75791
G1 X99.092 Y100.853 E1.77068
G1 X98.908 Y100.600 E1.79618
G1 X98.841 Y100.459 E1.80895
G1 X98.793 Y100.310 E1.82172
G1 X98.754 Y100.000 E1.84722
G1 X98.793 Y99.690 E1.87272
G1 X98.841 Y99.541 E1.88549
G1 X98.908 Y99.400 E1.89826
G1 X99.092 Y99.147 E1.92376
G1 X99.206 Y99.040 E1.93653
G1 X99.469 Y98.873 E1.96203
G1 X99.767 Y98.776 E1.98752
G1 X100.041 Y98.764 E2.00995
G1 X100.136 Y98.290 F7800.000
G1 F1800
G1 X100.538 Y98.362 E2.04148
G1 X100.734 Y98.440 E2.05776
G1 X100.924 Y98.544 E2.07447
G1 X101.099 Y98.671 E2.09119
G1 X101.257 Y98.820 E2.10790
G1 X101.395 Y98.986 E2.12462
G1 X101.511 Y99.169 E2.14134
G1 X101.603 Y99.365 E2.15805
G1 X101.670 Y99.571 E2.17477
G1 X101.711 Y99.784 E2.19148
G1 X101.724 Y100.000 E2.20820
G1 X101.711 Y100.216 E2.22492
G1 X101.670 Y100.429 E2.24163
G1 X101.603 Y100.635 E2.25835
G1 X101.511 Y100.831 E2.27506
G1 X101.395 Y101.014 E2.29178
G1 X101.257 Y101.180 E2.30850
G1 X101.099 Y101.329 E2.32521
G1 X100.924 Y101.456 E2.34193
G1 X100.734 Y101.560 E2.35865
G1 X100.533 Y101.640 E2.37536
G1 X100.323 Y101.694 E2.39208
G1 X100.108 Y101.721 E2.40879
G1 X99.892 Y101.721 E2.42551
G1 X99.677 Y101.694 E2.44223
G1 X99.467 Y101.640 E2.45894
G1 X99.266 Y101.560 E2.47566
G1 X99.076 Y101.456 E2.49237
G1 X98.901 Y101.329 E2.50909
G1 X98.743 Y101.180 E2.52581
G1 X98.605 Y101.014 E2.54252
G1 X98.489 Y100.831 E2.55924
G1 X98.397 Y100.635 E2.57596
G1 X98.330 Y100.429 E2.59267
G1 X98.289 Y100.216 E2.60939
G1 X98.276 Y100.000 E2.62610
G1 X98.289 Y99.784 E2.64282
G1 X98.330 Y99.571 E2.65954
G1 X98.397 Y99.365 E2.67625
G1 X98.489 Y99.169 E2.69297
G1 X98.605 Y98.986 E2.70969
G1 X98.743 Y98.820 E2.72640
G1 X98.901 Y98.671 E2.74312
G1 X99.076 Y98.544 E2.75983
G1 X99.266 Y98.440 E2.77655
G1 X99.467 Y98.360 E2.79327
G1 X99.677 Y98.306 E2.80998
G1 X99.886 Y98.280 E2.82625
G1 X100.061 Y98.287 E2.83978
G1 X100.176 Y98.361 F7800.000
G1 X99.890 Y99.752 F7800.000
G1 F3600
G1 X99.785 Y99.857 E2.85234
G1 X100.100 Y100.261 F7800.000
G1 F3600
G1 X100.204 Y100.156 E2.86478
G1 E1.86478 F1800.00000
G92 E0
G1 Z21.975 F7800.000
G1 X100.097 Y99.258 F7800.000
G1 E1.00000 F1800.00000
G1 F1800
G1 X100.257 Y99.292 E1.01334
G1 X100.404 Y99.363 E1.02670
G1 X100.610 Y99.557 E1.04977
G1 X100.730 Y99.812 E1.07284
G1 X100.748 Y100.095 E1.09591
G1 X100.661 Y100.363 E1.11898
G1 X100.481 Y100.581 E1.14205
G1 X100.233 Y100.717 E1.16513
G1 X99.953 Y100.753 E1.18820
G1 X99.767 Y100.717 E1.20363
G1 X99.596 Y100.637 E1.21906
G1 X99.390 Y100.443 E1.24213
G1 X99.277 Y100.212 E1.26314
G1 X99.253 Y100.050 E1.27648
G1 X99.257 Y99.879 E1.29044
G1 X99.339 Y99.637 E1.31134
G1 X99.519 Y99.419 E1.33442
G1 X99.767 Y99.283 E1.35749
G1 X99.926 Y99.251 E1.37074
G1 X100.022 Y99.255 E1.37858
G1 X100.199 Y98.778 F7800.000
G1 F1800
G1 X100.399 Y98.821 E1.39527
G1 X100.668 Y98.948 E1.41950
G1 X100.794 Y99.040 E1.43228
G1 X101.008 Y99.268 E1.45777
G1 X101.092 Y99.400 E1.47055
G1 X101.207 Y99.690 E1.49604
G1 X101.246 Y100.000 E1.52154
G1 X101.236 Y100.156 E1.53431
G1 X101.207 Y100.310 E1.54709
G1 X101.092 Y100.600 E1.57258
G1 X100.908 Y100.853 E1.59808
G1 X100.794 Y100.960 E1.61085
G1 X100.531 Y101.127 E1.63635
G1 X100.233 Y101.224 E1.66184
G1 X99.922 Y101.244 E1.68734
G1 X99.767 Y101.224 E1.70011
G1 X99.615 Y101.185 E1.71289
G1 X99.332 Y101.052 E1.73838
G1 X99.206 Y100.960 E1.75116
G1 X98.992 Y100.732 E1.77665
G1 X98.908 Y100.600 E1.78943
G1 X98.798 Y100.325 E1.81366
G1 X98.762 Y100.082 E1.83372
G1 X98.767 Y99.828 E1.85443
G1 X98.841 Y99.541 E1.87860
G1 X98.908 Y99.400 E1.89138
G1 X99.092 Y99.147 E1.91687
G1 X99.206 Y99.040 E1.92965
G1 X99.332 Y98.948 E1.94242
G1 X99.615 Y98.815 E1.96792
G1 X99.906 Y98.758 E1.99209
G1 X100.125 Y98.768 E2.01005
G1 X100.299 Y98.311 F7800.000
G1 F1800
G1 X100.538 Y98.362 E2.02890
G1 X100.734 Y98.440 E2.04518
G1 X100.924 Y98.544 E2.06190
G1 X101.099 Y98.671 E2.07862
G1 X101.257 Y98.820 E2.09533
G1 X101.395 Y98.986 E2.11205
G1 X101.511 Y99.169 E2.12876
G1 X101.603 Y99.365 E2.14548
G1 X101.670 Y99.571 E2.16220
G1 X101.711 Y99.784 E2.17891
G1 X101.724 Y100.000 E2.19563
G1 X101.711 Y100.216 E2.21235
G1 X101.670 Y100.429 E2.22906
G1 X101.603 Y100.635 E2.24578
G1 X101.511 Y100.831 E2.26249
G1 X101.395 Y101.014 E2.27921
G1 X101.257 Y101.180 E2.29593
G1 X101.099 Y101.329 E2.31264
G1 X100.924 Y101.456 E2.32936
G1 X100.734 Y101.560 E2.34607
G1 X100.533 Y101.640 E2.36279
G1 X100.323 Y101.694 E2.37951
G1 X100.108 Y101.721 E2.39622
G1 X99.892 Y101.721 E2.41294
G1 X99.677 Y101.694 E2.42966
G1 X99.467 Y101.640 E2.44637
G1 X99.266 Y101.560 E2.46309
G1 X99.076 Y101.456 E2.47980
G1 X98.901 Y101.329 E2.49652
G1 X98.743 Y101.180 E2.51324
G1 X98.605 Y101.014 E2.52995
G1 X98.489 Y100.831 E2.54667
G1 X98.397 Y100.635 E2.56339
G1 X98.331 Y100.434 E2.57967
G1 X98.284 Y100.112 E2.60480
G1 X98.290 Y99.778 E2.63059
G1 X98.330 Y99.571 E2.64685
G1 X98.397 Y99.365 E2.66357
G1 X98.489 Y99.169 E2.68029
G1 X98.605 Y98.986 E2.69700
G1 X98.743 Y98.820 E2.71372
G1 X98.901 Y98.671 E2.73043
G1 X99.076 Y98.544 E2.74715
G1 X99.266 Y98.440 E2.76387
G1 X99.467 Y98.360 E2.78058
G1 X99.677 Y98.306 E2.79730
G1 X99.886 Y98.280 E2.81356
G1 X100.226 Y98.295 E2.83983
G1 X100.385 Y98.540 F7800.000
G1 X100.154 Y99.799 F7800.000
G1 F3600
G1 X100.258 Y99.903 E2.85214
G1 X99.846 Y100.202 F7800.000
G1 F3600
G1 X99.740 Y100.095 E2.86474
G1 E1.86474 F1800.00000
G92 E0
G1 Z22.375 F7800.000
G1 X100.067 Y99.254 F7800.000
G1 E1.00000 F1800.00000
G1 F1800
G1 X100.262 Y99.294 E1.01620
G1 X100.404 Y99.363 E1.02912
G1 X100.610 Y99.557 E1.05219
G1 X100.730 Y99.812 E1.07526
G1 X100.748 Y100.095 E1.09834
G1 X100.661 Y100.363 E1.12141
G1 X100.481 Y100.581 E1.14448
G1 X100.233 Y100.717 E1.16755
G1 X99.953 Y100.753 E1.19062
G1 X99.767 Y100.717 E1.20605
G1 X99.596 Y100.637 E1.22149
G1 X99.390 Y100.443 E1.24456
G1 X99.277 Y100.211 E1.26559
G1 X99.254 Y100.052 E1.27876
G1 X99.257 Y99.879 E1.29289
G1 X99.339 Y99.637 E1.31377
G1 X99.519 Y99.419 E1.33684
G1 X99.767 Y99.283 E1.35991
G1 X99.992 Y99.252 E1.37849
G1 X100.083 Y98.764 F7800.000
G1 F1800
G1 X100.402 Y98.822 E1.40496
G1 X100.531 Y98.873 E1.41621
G1 X100.794 Y99.040 E1.44170
G1 X100.908 Y99.147 E1.45448
G1 X101.092 Y99.400 E1.47997
G1 X101.207 Y99.690 E1.50547
G1 X101.246 Y100.000 E1.53097
G1 X101.236 Y100.156 E1.54374
G1 X101.207 Y100.310 E1.55651
G1 X101.092 Y100.600 E1.58201
G1 X101.008 Y100.732 E1.59478
G1 X100.794 Y100.960 E1.62028
G1 X100.668 Y101.052 E1.63305
G1 X100.385 Y101.185 E1.65855
G1 X100.078 Y101.244 E1.68404
G1 X99.922 Y101.244 E1.69682
G1 X99.615 Y101.185 E1.72231
G1 X99.332 Y101.052 E1.74781
G1 X99.206 Y100.960 E1.76058
G1 X98.992 Y100.732 E1.78608
G1 X98.908 Y100.600 E1.79885
G1 X98.798 Y100.324 E1.82311
G1 X98.762 Y100.084 E1.84297
G1 X98.767 Y99.828 E1.86387
G1 X98.841 Y99.541 E1.88803
G1 X98.908 Y99.400 E1.90080
G1 X99.092 Y99.147 E1.92630
G1 X99.206 Y99.040 E1.93907
G1 X99.469 Y98.873 E1.96457
G1 X99.615 Y98.815 E1.97734
G1 X99.767 Y98.776 E1.99012
G1 X100.008 Y98.761 E2.00990
G1 X100.099 Y98.286 F7800.000
G1 F1800
G1 X100.539 Y98.362 E2.04439
G1 X100.734 Y98.440 E2.06057
G1 X100.924 Y98.544 E2.07729
G1 X101.099 Y98.671 E2.09401
G1 X101.257 Y98.820 E2.11072
G1 X101.395 Y98.986 E2.12744
G1 X101.511 Y99.169 E2.14415
G1 X101.603 Y99.365 E2.16087
G1 X101.670 Y99.571 E2.17759
G1 X101.711 Y99.784 E2.19430
G1 X101.724 Y100.000 E2.21102
G1 X101.711 Y100.216 E2.22774
G1 X101.670 Y100.429 E2.24445
G1 X101.603 Y100.635 E2.26117
G1 X101.511 Y100.831 E2.27788
G1 X101.395 Y101.014 E2.29460
G1 X101.257 Y101.180 E2.31132
G1 X101.099 Y101.329 E2.32803
G1 X100.924 Y101.456 E2.34475
G1 X100.734 Y101.560 E2.36146
G1 X100.533 Y101.640 E2.37818
G1 X100.323 Y101.694 E2.39490
G1 X100.108 Y101.721 E2.41161
G1 X99.892 Y101.721 E2.42833
G1 X99.677 Y101.694 E2.44505
G1 X99.467 Y101.640 E2.46176
G1 X99.266 Y101.560 E2.47848
G1 X99.076 Y101.456 E2.49519
G1 X98.901 Y101.329 E2.51191
G1 X98.743 Y101.180 E2.52863
G1 X98.605 Y101.014 E2.54534
G1 X98.489 Y100.831 E2.56206
G1 X98.397 Y100.635 E2.57878
G1 X98.331 Y100.434 E2.59506
G1 X98.284 Y100.114 E2.62001
G1 X98.290 Y99.778 E2.64599
G1 X98.330 Y99.571 E2.66224
G1 X98.397 Y99.365 E2.67896
G1 X98.489 Y99.169 E2.69568
G1 X98.605 Y98.986 E2.71239
G1 X98.743 Y98.820 E2.72911
G1 X98.901 Y98.671 E2.74582
G1 X99.076 Y98.544 E2.76254
G1 X99.266 Y98.440 E2.77926
G1 X99.467 Y98.360 E2.79597
G1 X99.677 Y98.306 E2.81269
G1 X99.887 Y98.280 E2.82906
G1 X100.024 Y98.284 E2.83962
G1 X100.140 Y98.358 F7800.000
G1 X99.890 Y99.752 F7800.000
G1 F3600
G1 X99.785 Y99.857 E2.85214
G1 X100.110 Y100.248 F7800.000
G1 F3600
G1 X100.214 Y100.144 E2.86454
G1 E1.86454 F1800.00000
G92 E0
G1 Z22.775 F7800.000
G1 X100.101 Y99.258 F7800.000
G1 E1.00000 F1800.00000
G1 F1800
G1 X100.256 Y99.292 E1.01299
G1 X100.404 Y99.363 E1.02640
G1 X100.610 Y99.557 E1.04947
G1 X100.730 Y99.812 E1.07254
G1 X100.748 Y100.095 E1.09562
G1 X100.661 Y100.363 E1.11869
G1 X100.481 Y100.581 E1.14176
G1 X100.233 Y100.717 E1.16483
G1 X99.953 Y100.753 E1.18790
G1 X99.767 Y100.717 E1.20333
G1 X99.596 Y100.637 E1.21877
G1 X99.390 Y100.443 E1.24184
G1 X99.277 Y100.211 E1.26290
G1 X99.254 Y100.054 E1.27589
G1 X99.257 Y99.879 E1.29020
G1 X99.339 Y99.637 E1.31105
G1 X99.519 Y99.419 E1.33412
G1 X99.767 Y99.283 E1.35720
G1 X99.925 Y99.251 E1.37039
G1 X100.026 Y99.255 E1.37858
G1 X100.204 Y98.779 F7800.000
G1 F1800
G1 X100.399 Y98.821 E1.39489
G1 X100.668 Y98.948 E1.41916
G1 X100.794 Y99.040 E1.43194
G1 X101.008 Y99.268 E1.45743
G1 X101.092 Y99.400 E1.47021
G1 X101.207 Y99.690 E1.49570
G1 X101.246 Y100.000 E1.52120
G1 X101.236 Y100.156 E1.53397
G1 X101.207 Y100.310 E1.54674
G1 X101.092 Y100.600 E1.57224
G1 X101.008 Y100.732 E1.58501
G1 X100.794 Y100.960 E1.61051
G1 X100.531 Y101.127 E1.63601
G1 X100.233 Y101.224 E1.66150
G1 X100.078 Y101.244 E1.67428
G1 X99.767 Y101.224 E1.69977
G1 X99.615 Y101.185 E1.71255
G1 X99.332 Y101.052 E1.73804
G1 X99.206 Y100.960 E1.75081
G1 X98.992 Y100.732 E1.77631
G1 X98.908 Y100.600 E1.78909
G1 X98.798 Y100.324 E1.81336
G1 X98.762 Y100.086 E1.83304
G1 X98.767 Y99.828 E1.85412
G1 X98.841 Y99.541 E1.87826
G1 X98.908 Y99.400 E1.89104
G1 X99.092 Y99.147 E1.91653
G1 X99.206 Y99.040 E1.92931
G1 X99.332 Y98.948 E1.94208
G1 X99.615 Y98.815 E1.96758
G1 X99.905 Y98.759 E1.99172
G1 X100.130 Y98.768 E2.01005
G1 X100.304 Y98.312 F7800.000
G1 F1800
G1 X100.538 Y98.362 E2.02853
G1 X100.734 Y98.440 E2.04482
G1 X100.924 Y98.544 E2.06153
G1 X101.099 Y98.671 E2.07825
G1 X101.257 Y98.820 E2.09497
G1 X101.395 Y98.986 E2.11168
G1 X101.511 Y99.169 E2.12840
G1 X101.603 Y99.365 E2.14512
G1 X101.670 Y99.571 E2.16183
G1 X101.711 Y99.784 E2.17855
G1 X101.724 Y100.000 E2.19526
G1 X101.711 Y100.216 E2.21198
G1 X101.670 Y100.429 E2.22870
G1 X101.603 Y100.635 E2.24541
G1 X101.511 Y100.831 E2.26213
G1 X101.395 Y101.014 E2.27885
G1 X101.257 Y101.180 E2.29556
G1 X101.099 Y101.329 E2.31228
G1 X100.924 Y101.456 E2.32899
G1 X100.734 Y101.560 E2.34571
G1 X100.533 Y101.640 E2.36243
G1 X100.323 Y101.694 E2.37914
G1 X100.108 Y101.721 E2.39586
G1 X99.892 Y101.721 E2.41257
G1 X99.677 Y101.694 E2.42929
G1 X99.467 Y101.640 E2.44601
G1 X99.266 Y101.560 E2.46272
G1 X99.076 Y101.456 E2.47944
G1 X98.901 Y101.329 E2.49615
G1 X98.743 Y101.180 E2.51287
G1 X98.605 Y101.014 E2.52959
G1 X98.489 Y100.831 E2.54630
G1 X98.397 Y100.635 E2.56302
G1 X98.331 Y100.434 E2.57931
G1 X98.284 Y100.117 E2.60407
G1 X98.290 Y99.778 E2.63024
G1 X98.330 Y99.571 E2.64649
G1 X98.397 Y99.365 E2.66320
G1 X98.489 Y99.169 E2.67992
G1 X98.605 Y98.986 E2.69664
G1 X98.743 Y98.820 E2.71335
G1 X98.901 Y98.671 E2.73007
G1 X99.076 Y98.544 E2.74679
G1 X99.266 Y98.440 E2.76350
G1 X99.467 Y98.360 E2.78022
G1 X99.677 Y98.306 E2.79693
G1 X99.886 Y98.280 E2.81318
G1 X100.231 Y98.296 E2.83983
G1 X100.388 Y98.536 F7800.000
G1 X100.154 Y99.799 F7800.000
G1 F3600
G1 X100.258 Y99.903 E2.85214
G1 X99.846 Y100.202 F7800.000
G1 F3600
G1 X99.740 Y100.095 E2.86474
G1 E1.86474 F1800.00000
G92 E0
G1 Z23.175 F7800.000
G1 X100.102 Y99.259 F7800.000
G1 E1.00000 F1800.00000
G1 F1800
G1 X100.256 Y99.292 E1.01281
G1 X100.404 Y99.363 E1.02626
G1 X100.610 Y99.557 E1.04933
G1 X100.730 Y99.812 E1.07240
G1 X100.748 Y100.095 E1.09547
G1 X100.661 Y100.363 E1.11854
G1 X100.481 Y100.581 E1.14161
G1 X100.233 Y100.717 E1.16468
G1 X99.953 Y100.753 E1.18776
G1 X99.679 Y100.682 E1.21083
G1 X99.450 Y100.516 E1.23390
G1 X99.299 Y100.278 E1.25697
G1 X99.246 Y100.000 E1.28004
G1 X99.299 Y99.722 E1.30311
G1 X99.450 Y99.484 E1.32619
G1 X99.596 Y99.363 E1.34162
G1 X99.767 Y99.283 E1.35705
G1 X99.925 Y99.251 E1.37022
G1 X100.027 Y99.255 E1.37858
G1 X100.124 Y98.768 F7800.000
G1 F1800
G1 X100.399 Y98.820 E1.40140
G1 X100.668 Y98.948 E1.42569
G1 X100.794 Y99.040 E1.43846
G1 X101.008 Y99.268 E1.46396
G1 X101.092 Y99.400 E1.47673
G1 X101.207 Y99.690 E1.50223
G1 X101.246 Y100.000 E1.52773
G1 X101.236 Y100.156 E1.54050
G1 X101.207 Y100.310 E1.55327
G1 X101.092 Y100.600 E1.57877
G1 X101.008 Y100.732 E1.59154
G1 X100.794 Y100.960 E1.61704
G1 X100.668 Y101.052 E1.62981
G1 X100.385 Y101.185 E1.65531
G1 X100.078 Y101.244 E1.68081
G1 X99.922 Y101.244 E1.69358
G1 X99.615 Y101.185 E1.71907
G1 X99.469 Y101.127 E1.73185
G1 X99.206 Y100.960 E1.75734
G1 X99.092 Y100.853 E1.77012
G1 X98.908 Y100.600 E1.79561
G1 X98.841 Y100.459 E1.80839
G1 X98.793 Y100.310 E1.82116
G1 X98.754 Y100.000 E1.84666
G1 X98.793 Y99.690 E1.87215
G1 X98.841 Y99.541 E1.88493
G1 X98.908 Y99.400 E1.89770
G1 X99.092 Y99.147 E1.92320
G1 X99.206 Y99.040 E1.93597
G1 X99.469 Y98.873 E1.96146
G1 X99.767 Y98.776 E1.98696
G1 X100.049 Y98.765 E2.01006
G1 X100.145 Y98.291 F7800.000
G1 F1800
G1 X100.538 Y98.362 E2.04084
G1 X100.734 Y98.440 E2.05714
G1 X100.924 Y98.544 E2.07386
G1 X101.099 Y98.671 E2.09058
G1 X101.257 Y98.820 E2.10729
G1 X101.395 Y98.986 E2.12401
G1 X101.511 Y99.169 E2.14072
G1 X101.603 Y99.365 E2.15744
G1 X101.670 Y99.571 E2.17416
G1 X101.711 Y99.784 E2.19087
G1 X101.724 Y100.000 E2.20759
G1 X101.711 Y100.216 E2.22431
G1 X101.670 Y100.429 E2.24102
G1 X101.603 Y100.635 E2.25774
G1 X101.511 Y100.831 E2.27445
G1 X101.395 Y101.014 E2.29117
G1 X101.257 Y101.180 E2.30789
G1 X101.099 Y101.329 E2.32460
G1 X100.924 Y101.456 E2.34132
G1 X100.734 Y101.560 E2.35803
G1 X100.533 Y101.640 E2.37475
G1 X100.323 Y101.694 E2.39147
G1 X100.108 Y101.721 E2.40818
