; generated by Slic3r 1.3.1-dev on 2018-10-26 at 10:58:49

; external perimeters extrusion width = 0.55mm (3.90mm^3/s)
; perimeters extrusion width = 0.58mm (5.89mm^3/s)
; infill extrusion width = 0.58mm (11.78mm^3/s)
; solid infill extrusion width = 0.58mm (11.78mm^3/s)
; top infill extrusion width = 0.58mm (9.82mm^3/s)
; support material extrusion width = 0.55mm (11.14mm^3/s)

;M104 S200  ; set temperature
G28                  ; home all axes
G29                  ;Calibration par palpation de 4 points
M500               ;Sauvegarde de la calibration
G1 Z5 F5000 ; lift nozzle
;M190 S65    ; set bed temperature
; Filament gcode

G21 ; set units to millimeters
G90 ; use absolute coordinates
M82 ; use absolute distances for extrusion
G92 E0
G92 E0
G1 E-1.00000 F1800.00000
G92 E0
G1 Z0.500 F7800.000
G1 X98.130 Y98.219 F7800.000
G1 E1.00000 F1800.00000
G1 F1440
G1 X98.368 Y97.999 E1.06739
G1 X98.601 Y97.829 E1.12723
G1 X98.917 Y97.656 E1.20223
G1 X99.185 Y97.550 E1.26206
G1 X99.498 Y97.467 E1.32946
G1 X99.856 Y97.422 E1.40447
G1 X100.180 Y97.424 E1.47183
G1 X100.466 Y97.460 E1.53172
G1 X100.815 Y97.550 E1.60672
G1 X101.116 Y97.671 E1.67407
G1 X101.368 Y97.810 E1.73393
G1 X101.675 Y98.036 E1.81302
G1 X101.895 Y98.246 E1.87632
G1 X102.100 Y98.497 E1.94375
G1 X102.272 Y98.772 E2.01114
G1 X102.394 Y99.033 E2.07103
G1 X102.506 Y99.375 E2.14595
G1 X102.564 Y99.694 E2.21337
G1 X102.582 Y99.981 E2.27312
G1 X102.560 Y100.342 E2.34819
G1 X102.506 Y100.625 E2.40806
G1 X102.408 Y100.934 E2.47543
G1 X102.254 Y101.260 E2.55043
G1 X102.100 Y101.503 E2.61030
G1 X101.895 Y101.754 E2.67761
G1 X101.632 Y102.001 E2.75267
G1 X101.368 Y102.190 E2.82004
G1 X101.116 Y102.329 E2.87991
G1 X100.781 Y102.462 E2.95490
G1 X100.502 Y102.533 E3.01475
G1 X100.180 Y102.576 E3.08215
G1 X99.820 Y102.576 E3.15716
G1 X99.534 Y102.540 E3.21699
G1 X99.219 Y102.462 E3.28439
G1 X98.884 Y102.329 E3.35940
G1 X98.601 Y102.171 E3.42675
G1 X98.340 Y101.978 E3.49416
G1 X98.105 Y101.754 E3.56163
G1 X97.921 Y101.532 E3.62150
G1 X97.728 Y101.228 E3.69645
G1 X97.606 Y100.967 E3.75633
G1 X97.503 Y100.660 E3.82369
G1 X97.436 Y100.306 E3.89867
G1 X97.418 Y100.018 E3.95859
G1 X97.436 Y99.695 E4.02584
G1 X97.503 Y99.340 E4.10096
G1 X97.592 Y99.066 E4.16078
G1 X97.728 Y98.772 E4.22815
G1 X97.900 Y98.497 E4.29556
G1 X98.081 Y98.275 E4.35501
G1 E3.35501 F1800.00000
G92 E0
G1 Z0.875 F7800.000
G1 X100.280 Y96.789 F7800.000
G1 E1.00000 F1800.00000
G1 F3600
G1 X99.797 Y96.779 E1.03536
G1 X99.395 Y96.830 E1.06504
G1 X99.003 Y96.930 E1.09469
G1 X98.626 Y97.080 E1.12437
G1 X98.271 Y97.275 E1.15403
G1 X97.943 Y97.513 E1.18372
G1 X97.647 Y97.791 E1.21338
G1 X97.389 Y98.103 E1.24305
G1 X97.172 Y98.445 E1.27272
G1 X96.999 Y98.812 E1.30237
G1 X96.874 Y99.197 E1.33201
G1 X96.798 Y99.596 E1.36177
G1 X96.773 Y99.999 E1.39135
G1 X96.798 Y100.405 E1.42108
G1 X96.874 Y100.803 E1.45073
G1 X96.999 Y101.188 E1.48037
G1 X97.172 Y101.555 E1.51007
G1 X97.389 Y101.897 E1.53971
G1 X97.647 Y102.209 E1.56940
G1 X97.943 Y102.487 E1.59910
G1 X98.271 Y102.725 E1.62877
G1 X98.626 Y102.920 E1.65841
G1 X99.003 Y103.069 E1.68807
G1 X99.395 Y103.170 E1.71773
G1 X99.797 Y103.221 E1.74741
G1 X100.203 Y103.221 E1.77709
G1 X100.604 Y103.170 E1.80674
G1 X100.997 Y103.069 E1.83643
G1 X101.374 Y102.920 E1.86610
G1 X101.661 Y102.763 E1.89003
G1 X102.057 Y102.487 E1.92540
G1 X102.353 Y102.209 E1.95511
G1 X102.611 Y101.897 E1.98472
G1 X102.828 Y101.554 E2.01443
G1 X103.001 Y101.188 E2.04407
G1 X103.126 Y100.803 E2.07372
G1 X103.202 Y100.404 E2.10343
G1 X103.227 Y99.999 E2.13312
G1 X103.202 Y99.595 E2.16277
G1 X103.126 Y99.197 E2.19245
G1 X103.001 Y98.812 E2.22206
G1 X102.828 Y98.445 E2.25176
G1 X102.611 Y98.103 E2.28140
G1 X102.353 Y97.791 E2.31109
G1 X102.057 Y97.513 E2.34077
G1 X101.729 Y97.275 E2.37043
G1 X101.374 Y97.080 E2.40012
G1 X100.997 Y96.931 E2.42976
G1 X100.605 Y96.830 E2.45940
G1 X100.280 Y96.789 E2.48337
G1 X100.000 Y102.519 F7800.000
G1 F3600
G1 X100.159 Y102.519 E2.49498
G1 X100.473 Y102.480 E2.51818
G1 X100.780 Y102.401 E2.54139
G1 X101.075 Y102.284 E2.56460
G1 X101.353 Y102.131 E2.58781
G1 X101.581 Y101.965 E2.60849
G1 X101.840 Y101.728 E2.63422
G1 X102.042 Y101.484 E2.65740
G1 X102.212 Y101.216 E2.68062
G1 X102.347 Y100.929 E2.70382
G1 X102.445 Y100.628 E2.72702
G1 X102.505 Y100.316 E2.75024
G1 X102.524 Y100.000 E2.77345
G1 X102.505 Y99.683 E2.79665
G1 X102.445 Y99.372 E2.81987
G1 X102.347 Y99.071 E2.84305
G1 X102.212 Y98.784 E2.86627
G1 X102.042 Y98.516 E2.88946
G1 X101.840 Y98.272 E2.91268
G1 X101.609 Y98.055 E2.93589
G1 X101.353 Y97.869 E2.95909
G1 X101.075 Y97.716 E2.98231
G1 X100.780 Y97.599 E3.00550
G1 X100.473 Y97.520 E3.02870
G1 X100.158 Y97.481 E3.05193
G1 X100.000 Y97.481 E3.06352
G1 X100.000 Y102.519 E3.43238
G1 E2.43238 F1800.00000
G92 E0
G1 Z1.575 F7800.000
G1 X100.056 Y99.127 F7800.000
G1 E1.00000 F1800.00000

G1 F3600
G1 X100.270 Y99.168 E1.01781
G1 X100.469 Y99.261 E1.03571
G1 X100.558 Y99.326 E1.04468
G1 X100.707 Y99.485 E1.06249
G1 X100.767 Y99.579 E1.07159
G1 X100.847 Y99.782 E1.08945
G1 X100.875 Y100.000 E1.10736
G1 X100.868 Y100.110 E1.11633
G1 X100.847 Y100.218 E1.12529
G1 X100.767 Y100.421 E1.14320
G1 X100.708 Y100.514 E1.15216
G1 X100.558 Y100.674 E1.17003
G1 X100.468 Y100.739 E1.17913
G1 X100.270 Y100.832 E1.19694
G1 X100.055 Y100.873 E1.21484
G1 X99.945 Y100.873 E1.22381
G1 X99.730 Y100.832 E1.24171
G1 X99.627 Y100.792 E1.25068
G1 X99.442 Y100.674 E1.26858
G1 X99.362 Y100.599 E1.27755
G1 X99.233 Y100.421 E1.29545
G1 X99.187 Y100.322 E1.30442
G1 X99.132 Y100.109 E1.32236
G1 X99.125 Y100.000 E1.33129
G1 X99.153 Y99.782 E1.34919
G1 X99.187 Y99.678 E1.35816
G1 X99.233 Y99.579 E1.36713
G1 X99.362 Y99.402 E1.38494
G1 X99.443 Y99.326 E1.39404
G1 X99.627 Y99.208 E1.41190
G1 X99.836 Y99.141 E1.42981
G1 X99.981 Y99.127 E1.44170

G1 X100.056 Y98.709 F7800.000

G1 F3600
G1 X100.242 Y98.730 E1.45697
G1 X100.551 Y98.830 E1.48344
G1 X100.824 Y99.003 E1.50990
G1 X100.943 Y99.115 E1.52316
G1 X101.134 Y99.377 E1.54965
G1 X101.203 Y99.524 E1.56289
G1 X101.253 Y99.678 E1.57614
G1 X101.293 Y100.000 E1.60261
G1 X101.253 Y100.322 E1.62908
G1 X101.203 Y100.476 E1.64234
G1 X101.046 Y100.760 E1.66880
G1 X100.825 Y100.996 E1.69525
G1 X100.692 Y101.093 E1.70863
G1 X100.400 Y101.230 E1.73499
G1 X100.242 Y101.270 E1.74825
G1 X99.919 Y101.291 E1.77472
G1 X99.758 Y101.270 E1.78798
G1 X99.449 Y101.170 E1.81445
G1 X99.176 Y100.997 E1.84091
G1 X99.057 Y100.885 E1.85417
G1 X98.867 Y100.623 E1.88064
G1 X98.797 Y100.476 E1.89390
G1 X98.717 Y100.162 E1.92039
G1 X98.707 Y100.000 E1.93362
G1 X98.747 Y99.678 E1.96009
G1 X98.797 Y99.524 E1.97335
G1 X98.867 Y99.377 E1.98661
G1 X99.056 Y99.116 E2.01297
G1 X99.176 Y99.003 E2.02636
G1 X99.449 Y98.830 E2.05280
G1 X99.758 Y98.730 E2.07927
G1 X99.981 Y98.709 E2.09761

G1 X100.057 Y98.279 F7800.000

G1 F3600
G1 X100.323 Y98.306 E2.11946
G1 X100.533 Y98.360 E2.13714
G1 X100.734 Y98.440 E2.15482
G1 X100.924 Y98.544 E2.17250
G1 X101.099 Y98.671 E2.19018
G1 X101.257 Y98.820 E2.20786
G1 X101.394 Y98.985 E2.22541
G1 X101.511 Y99.169 E2.24322
G1 X101.603 Y99.365 E2.26089
G1 X101.670 Y99.571 E2.27857
G1 X101.711 Y99.784 E2.29625
G1 X101.724 Y100.000 E2.31392
G1 X101.711 Y100.216 E2.33160
G1 X101.670 Y100.429 E2.34928
G1 X101.603 Y100.635 E2.36696
G1 X101.511 Y100.831 E2.38464
G1 X101.395 Y101.014 E2.40232
G1 X101.257 Y101.180 E2.41999
G1 X101.099 Y101.329 E2.43766
G1 X100.923 Y101.457 E2.45547
G1 X100.734 Y101.560 E2.47303
G1 X100.533 Y101.640 E2.49071
G1 X100.323 Y101.694 E2.50838
G1 X100.108 Y101.721 E2.52606
G1 X99.892 Y101.721 E2.54374
G1 X99.677 Y101.694 E2.56142
G1 X99.467 Y101.640 E2.57910
G1 X99.266 Y101.560 E2.59678
G1 X99.076 Y101.456 E2.61445
G1 X98.901 Y101.329 E2.63213
G1 X98.743 Y101.180 E2.64981
G1 X98.605 Y101.014 E2.66749
G1 X98.489 Y100.831 E2.68517
G1 X98.397 Y100.635 E2.70285
G1 X98.330 Y100.430 E2.72040
G1 X98.289 Y100.216 E2.73821
G1 X98.276 Y100.000 E2.75588
G1 X98.289 Y99.784 E2.77356
G1 X98.330 Y99.571 E2.79124
G1 X98.397 Y99.365 E2.80891
G1 X98.489 Y99.169 E2.82659
G1 X98.605 Y98.986 E2.84427
G1 X98.742 Y98.821 E2.86183
G1 X98.901 Y98.671 E2.87964
G1 X99.076 Y98.544 E2.89730
G1 X99.266 Y98.440 E2.91498
G1 X99.467 Y98.360 E2.93266
G1 X99.677 Y98.306 E2.95034
G1 X99.982 Y98.279 E2.97532

G1 X100.053 Y99.559 F7800.000

G1 F3600
G1 X99.565 Y100.048 E3.05924

G1 X100.185 Y100.361 F7800.000

G1 F3600
G1 X100.287 Y100.258 E3.07687

G1 E2.07687 F1800.00000
G92 E0
G1 Z1.975 F7800.000
G1 X100.050 Y99.248 F7800.000
G1 E1.00000 F1800.00000
G1 F1800
G1 X100.233 Y99.283 E1.01518
G1 X100.404 Y99.363 E1.03062
G1 X100.610 Y99.557 E1.05369
G1 X100.730 Y99.812 E1.07676
G1 X100.748 Y100.095 E1.09983
G1 X100.661 Y100.363 E1.12290
G1 X100.482 Y100.580 E1.14587
G1 X100.234 Y100.717 E1.16893
G1 X99.954 Y100.753 E1.19200
G1 X99.679 Y100.682 E1.21518
G1 X99.450 Y100.516 E1.23825
G1 X99.299 Y100.278 E1.26133
G1 X99.246 Y100.000 E1.28440
G1 X99.299 Y99.722 E1.30747
G1 X99.448 Y99.486 E1.33029
G1 X99.679 Y99.318 E1.35360
G1 X99.859 Y99.259 E1.36904
G1 X99.975 Y99.248 E1.37861
G1 X100.112 Y98.761 F7800.000
G1 F1800
G1 X100.385 Y98.815 E1.40134
G1 X100.668 Y98.948 E1.42684
G1 X100.794 Y99.040 E1.43961
G1 X101.008 Y99.268 E1.46511
G1 X101.092 Y99.400 E1.47788
G1 X101.207 Y99.690 E1.50338
G1 X101.246 Y100.000 E1.52887
G1 X101.236 Y100.156 E1.54165
G1 X101.207 Y100.310 E1.55442
G1 X101.092 Y100.600 E1.57992
G1 X101.008 Y100.732 E1.59269
G1 X100.795 Y100.960 E1.61812
G1 X100.665 Y101.054 E1.63125
G1 X100.386 Y101.185 E1.65639
G1 X100.230 Y101.224 E1.66952
G1 X99.923 Y101.244 E1.69465
G1 X99.763 Y101.223 E1.70778
G1 X99.469 Y101.127 E1.73299
G1 X99.206 Y100.960 E1.75848
G1 X99.092 Y100.853 E1.77126
G1 X98.908 Y100.600 E1.79675
G1 X98.841 Y100.459 E1.80953
G1 X98.764 Y100.155 E1.83509
G1 X98.754 Y100.000 E1.84780
G1 X98.793 Y99.690 E1.87329
G1 X98.841 Y99.541 E1.88606
G1 X98.908 Y99.400 E1.89884
G1 X99.089 Y99.150 E1.92404
G1 X99.206 Y99.039 E1.93717
G1 X99.469 Y98.873 E1.96260
G1 X99.767 Y98.776 E1.98810
G1 X100.037 Y98.757 E2.01025
G1 X100.172 Y98.287 F7800.000
G1 F1800
G1 X100.533 Y98.360 E2.03869
G1 X100.734 Y98.440 E2.05540
G1 X100.924 Y98.544 E2.07212
G1 X101.099 Y98.671 E2.08883
G1 X101.257 Y98.820 E2.10555
G1 X101.395 Y98.986 E2.12227
G1 X101.511 Y99.169 E2.13898
G1 X101.603 Y99.365 E2.15570
G1 X101.670 Y99.571 E2.17241
G1 X101.711 Y99.784 E2.18913
G1 X101.724 Y100.000 E2.20585
G1 X101.711 Y100.216 E2.22256
G1 X101.670 Y100.429 E2.23928
G1 X101.603 Y100.635 E2.25600
G1 X101.511 Y100.831 E2.27271
G1 X101.395 Y101.014 E2.28943
G1 X101.257 Y101.180 E2.30614
G1 X101.099 Y101.329 E2.32284
G1 X100.920 Y101.458 E2.33989
G1 X100.734 Y101.560 E2.35629
G1 X100.533 Y101.640 E2.37298
G1 X100.319 Y101.694 E2.39004
G1 X100.108 Y101.721 E2.40644
G1 X99.892 Y101.721 E2.42313
G1 X99.673 Y101.693 E2.44018
G1 X99.467 Y101.640 E2.45658
G1 X99.266 Y101.560 E2.47330
G1 X99.076 Y101.456 E2.49001
G1 X98.901 Y101.329 E2.50673
G1 X98.743 Y101.180 E2.52345
G1 X98.605 Y101.014 E2.54016
G1 X98.489 Y100.831 E2.55688
G1 X98.397 Y100.635 E2.57360
G1 X98.331 Y100.433 E2.58999
G1 X98.289 Y100.216 E2.60705
G1 X98.276 Y100.000 E2.62374
G1 X98.289 Y99.784 E2.64046
G1 X98.330 Y99.571 E2.65717
G1 X98.397 Y99.365 E2.67389
G1 X98.489 Y99.169 E2.69061
G1 X98.605 Y98.986 E2.70732
G1 X98.740 Y98.823 E2.72372
G1 X98.901 Y98.671 E2.74077
G1 X99.076 Y98.544 E2.75747
G1 X99.266 Y98.440 E2.77418
G1 X99.467 Y98.360 E2.79090
G1 X99.677 Y98.306 E2.80762
G1 X99.891 Y98.279 E2.82431
G1 X100.097 Y98.279 E2.84020
G1 X100.238 Y98.424 F7800.000
G1 X100.154 Y99.799 F7800.000
G1 F3600
G1 X100.258 Y99.903 E2.85263
G1 X99.854 Y100.217 F7800.000
G1 F3600
G1 X99.749 Y100.112 E2.86518
G1 E1.86518 F1800.00000
G92 E0
G1 Z2.375 F7800.000
G1 X100.052 Y99.248 F7800.000
G1 E1.00000 F1800.00000
G1 F1800
G1 X100.233 Y99.283 E1.01504
G1 X100.404 Y99.363 E1.03047
G1 X100.610 Y99.557 E1.05354
G1 X100.730 Y99.812 E1.07661
G1 X100.748 Y100.095 E1.09969
G1 X100.661 Y100.363 E1.12276
G1 X100.482 Y100.580 E1.14566
G1 X100.233 Y100.717 E1.16890
G1 X99.953 Y100.753 E1.19197
G1 X99.679 Y100.682 E1.21504
G1 X99.450 Y100.516 E1.23811
G1 X99.299 Y100.278 E1.26119
G1 X99.246 Y100.000 E1.28426
G1 X99.299 Y99.722 E1.30733
G1 X99.447 Y99.487 E1.33001
G1 X99.521 Y99.418 E1.33830
G1 X99.679 Y99.318 E1.35356
G1 X99.859 Y99.259 E1.36899
G1 X99.977 Y99.248 E1.37871
G1 X100.054 Y98.757 F7800.000
G1 F1800
G1 X100.233 Y98.776 E1.39346
G1 X100.531 Y98.873 E1.41896
G1 X100.794 Y99.040 E1.44445
G1 X100.908 Y99.147 E1.45722
G1 X101.092 Y99.400 E1.48272
G1 X101.159 Y99.541 E1.49549
G1 X101.207 Y99.690 E1.50827
G1 X101.246 Y100.000 E1.53376
G1 X101.207 Y100.310 E1.55926
G1 X101.158 Y100.459 E1.57203
G1 X101.008 Y100.732 E1.59753
G1 X100.795 Y100.959 E1.62292
G1 X100.663 Y101.055 E1.63625
G1 X100.385 Y101.185 E1.66129
G1 X100.233 Y101.224 E1.67406
G1 X99.922 Y101.244 E1.69956
G1 X99.615 Y101.185 E1.72506
G1 X99.469 Y101.127 E1.73783
G1 X99.206 Y100.960 E1.76333
G1 X99.092 Y100.853 E1.77610
G1 X98.908 Y100.600 E1.80160
G1 X98.841 Y100.459 E1.81437
G1 X98.764 Y100.155 E1.83997
G1 X98.754 Y100.000 E1.85264
G1 X98.793 Y99.690 E1.87813
G1 X98.841 Y99.541 E1.89091
G1 X98.908 Y99.400 E1.90368
G1 X99.088 Y99.151 E1.92872
G1 X99.207 Y99.039 E1.94205
G1 X99.469 Y98.873 E1.96744
G1 X99.767 Y98.776 E1.99294
G1 X99.979 Y98.757 E2.01034
G1 X100.055 Y98.280 F7800.000
G1 F1800
G1 X100.323 Y98.306 E2.03111
G1 X100.533 Y98.360 E2.04782
G1 X100.734 Y98.440 E2.06454
G1 X100.924 Y98.544 E2.08125
G1 X101.099 Y98.671 E2.09797
G1 X101.257 Y98.820 E2.11469
G1 X101.395 Y98.986 E2.13140
G1 X101.511 Y99.169 E2.14812
G1 X101.603 Y99.365 E2.16484
G1 X101.670 Y99.571 E2.18155
G1 X101.711 Y99.784 E2.19827
G1 X101.724 Y100.000 E2.21498
G1 X101.711 Y100.216 E2.23170
G1 X101.670 Y100.429 E2.24842
G1 X101.603 Y100.635 E2.26513
G1 X101.511 Y100.831 E2.28185
G1 X101.395 Y101.014 E2.29857
G1 X101.257 Y101.180 E2.31528
G1 X101.100 Y101.328 E2.33196
G1 X100.918 Y101.459 E2.34921
G1 X100.734 Y101.560 E2.36542
G1 X100.533 Y101.640 E2.38214
G1 X100.323 Y101.694 E2.39886
G1 X100.108 Y101.721 E2.41557
G1 X99.892 Y101.721 E2.43229
G1 X99.677 Y101.694 E2.44901
G1 X99.467 Y101.640 E2.46572
G1 X99.266 Y101.560 E2.48244
G1 X99.076 Y101.456 E2.49915
G1 X98.901 Y101.329 E2.51587
G1 X98.743 Y101.180 E2.53259
G1 X98.605 Y101.014 E2.54930
G1 X98.489 Y100.831 E2.56602
G1 X98.397 Y100.635 E2.58274
G1 X98.332 Y100.435 E2.59895
G1 X98.289 Y100.216 E2.61620
G1 X98.276 Y100.000 E2.63288
G1 X98.289 Y99.784 E2.64960
G1 X98.330 Y99.571 E2.66631
G1 X98.397 Y99.365 E2.68303
G1 X98.489 Y99.169 E2.69974
G1 X98.605 Y98.986 E2.71646
G1 X98.739 Y98.824 E2.73268
G1 X98.901 Y98.671 E2.74993
G1 X99.076 Y98.544 E2.76661
G1 X99.266 Y98.440 E2.78332
G1 X99.467 Y98.360 E2.80004
G1 X99.677 Y98.306 E2.81675
G1 X99.980 Y98.279 E2.84027
G1 X100.086 Y98.330 F7800.000
G1 X99.891 Y99.751 F7800.000
G1 F3600
G1 X99.786 Y99.856 E2.85279
G1 X100.111 Y100.247 F7800.000
G1 F3600
G1 X100.215 Y100.143 E2.86519
G1 E1.86519 F1800.00000
G92 E0
G1 Z2.775 F7800.000
G1 X100.054 Y99.248 F7800.000
G1 E1.00000 F1800.00000
G1 F1800
G1 X100.233 Y99.283 E1.01489
G1 X100.402 Y99.362 E1.03010
G1 X100.610 Y99.557 E1.05339
G1 X100.730 Y99.812 E1.07646
G1 X100.748 Y100.095 E1.09954
G1 X100.661 Y100.363 E1.12261
G1 X100.481 Y100.581 E1.14568
G1 X100.233 Y100.717 E1.16875
G1 X99.953 Y100.753 E1.19182
G1 X99.679 Y100.682 E1.21489
G1 X99.450 Y100.516 E1.23796
G1 X99.299 Y100.278 E1.26104
G1 X99.246 Y100.000 E1.28411
G1 X99.299 Y99.722 E1.30718
G1 X99.446 Y99.489 E1.32972
G1 X99.520 Y99.419 E1.33798
G1 X99.679 Y99.318 E1.35341
G1 X99.859 Y99.259 E1.36884
G1 X99.979 Y99.248 E1.37870
G1 X100.115 Y98.761 F7800.000
G1 F1800
G1 X100.385 Y98.815 E1.40114
G1 X100.666 Y98.947 E1.42650
G1 X100.800 Y99.045 E1.44003
G1 X101.008 Y99.268 E1.46490
G1 X101.092 Y99.400 E1.47768
G1 X101.207 Y99.690 E1.50317
G1 X101.246 Y100.000 E1.52867
G1 X101.236 Y100.156 E1.54144
G1 X101.207 Y100.310 E1.55422
G1 X101.092 Y100.600 E1.57971
G1 X100.908 Y100.853 E1.60521
G1 X100.794 Y100.960 E1.61798
G1 X100.668 Y101.052 E1.63075
G1 X100.385 Y101.185 E1.65625
G1 X100.078 Y101.244 E1.68175
