; generated by Slic3r 1.2.9 on 2017-10-10 at 13:18:25

; external perimeters extrusion width = 0.50mm
; perimeters extrusion width = 0.58mm
; infill extrusion width = 0.58mm
; solid infill extrusion width = 0.58mm
; top infill extrusion width = 0.58mm
; support material extrusion width = 0.50mm

;M104 S200 ; set temperature
G28 ; home all axes
G1 Z5 F5000 ; lift nozzle
;M190 S65 ; set bed temperature
G21 ; set units to millimeters
G90 ; use absolute coordinates
M82 ; use absolute distances for extrusion
G92 E0
G1 E-1.00000 F1800.00000
G92 E0
G1 Z0.500 F7800.000
G1 X99.406 Y16.816 F7800.000
G1 E1.00000 F1800.00000
G1 X99.667 Y16.555 E1.06862 F360.000
G1 X103.883 Y16.555 E1.85091
G1 X104.406 Y16.032 E1.98815
G1 X104.406 Y12.970 E2.55626
G1 X103.883 Y12.447 E2.69350
G1 X91.845 Y12.447 E4.92735
G1 X91.506 Y12.406 E4.99075
G1 X91.168 Y12.275 E5.05803
G1 X90.872 Y12.065 E5.12531
G1 X90.639 Y11.788 E5.19260
G1 X90.481 Y11.461 E5.25988
G1 X90.410 Y11.106 E5.32717
G1 X90.429 Y10.744 E5.39445
G1 X90.538 Y10.398 E5.46172
G1 X90.729 Y10.090 E5.52901
G1 X90.872 Y9.937 E5.56791
G1 X91.168 Y9.727 E5.63518
G1 X91.506 Y9.597 E5.70248
G1 X91.845 Y9.555 E5.76588
G1 X107.037 Y9.555 E8.58505
G1 X107.299 Y9.816 E8.65367
G1 X107.299 Y44.902 E15.16456
G1 X107.547 Y45.322 E15.25520
G1 X108.190 Y45.710 E15.39445
G1 X108.578 Y46.028 E15.48758
G1 X108.923 Y46.393 E15.58069
G1 X109.219 Y46.798 E15.67384
G1 X109.462 Y47.237 E15.76697
G1 X109.649 Y47.703 E15.86010
G1 X109.780 Y48.216 E15.95843
G1 X109.842 Y48.714 E16.05156
G1 X109.840 Y49.216 E16.14469
G1 X109.775 Y49.714 E16.23783
G1 X109.657 Y50.173 E16.32576
G1 X109.488 Y50.606 E16.41215
G1 X109.234 Y51.081 E16.51198
G1 X108.940 Y51.488 E16.60512
G1 X108.578 Y51.874 E16.70344
G1 X108.190 Y52.192 E16.79657
G1 X107.790 Y52.446 E16.88451
G1 X107.367 Y52.647 E16.97134
G1 X106.953 Y52.384 E17.06240
G1 X106.953 Y50.910 E17.33596
G1 X106.929 Y50.717 E17.37200
G1 X106.860 Y50.508 E17.41289
G1 X106.767 Y50.338 E17.44893
G1 X106.626 Y50.168 E17.48984
G1 X106.407 Y50.000 E17.54107
G1 X106.231 Y49.917 E17.57713
G1 X106.018 Y49.862 E17.61799
G1 X105.686 Y49.862 E17.67956
G1 X105.473 Y49.917 E17.72042
G1 X105.297 Y50.000 E17.75647
G1 X105.119 Y50.129 E17.79736
G1 X104.986 Y50.271 E17.83341
G1 X104.844 Y50.508 E17.88466
G1 X104.796 Y50.638 E17.91031
G1 X104.755 Y50.854 E17.95119
G1 X104.752 Y52.384 E18.23516
G1 X104.337 Y52.647 E18.32622
G1 X103.915 Y52.446 E18.41304
G1 X103.515 Y52.192 E18.50099
G1 X103.127 Y51.874 E18.59412
G1 X102.782 Y51.509 E18.68723
G1 X102.486 Y51.104 E18.78038
G1 X102.242 Y50.665 E18.87352
G1 X102.056 Y50.199 E18.96665
G1 X101.929 Y49.714 E19.05978
G1 X101.865 Y49.216 E19.15291
G1 X101.863 Y48.714 E19.24604
G1 X101.929 Y48.189 E19.34437
G1 X102.047 Y47.730 E19.43230
G1 X102.217 Y47.296 E19.51869
G1 X102.471 Y46.822 E19.61852
G1 X102.764 Y46.415 E19.71166
G1 X103.127 Y46.028 E19.80998
G1 X103.515 Y45.710 E19.90311
G1 X104.157 Y45.322 E20.04236
G1 X104.406 Y44.902 E20.13299
G1 X104.406 Y25.470 E23.73894
G1 X103.883 Y24.947 E23.87617
G1 X91.845 Y24.947 E26.11003
G1 X91.626 Y24.932 E26.15085
G1 X91.396 Y24.884 E26.19441
G1 X91.047 Y24.744 E26.26410
G1 X90.867 Y24.632 E26.30364
G1 X90.701 Y24.497 E26.34319
G1 X90.536 Y24.322 E26.38790
G1 X90.412 Y24.148 E26.42745
G1 X90.243 Y23.789 E26.50118
G1 X90.189 Y23.583 E26.54073
G1 X90.158 Y23.344 E26.58544
G1 X90.183 Y22.947 E26.65919
G1 X90.243 Y22.714 E26.70393
G1 X90.323 Y22.516 E26.74344
G1 X90.427 Y22.330 E26.78298
G1 X90.681 Y22.024 E26.85673
G1 X90.867 Y21.870 E26.90146
G1 X91.215 Y21.679 E26.97521
G1 X91.444 Y21.605 E27.01993
G1 X91.845 Y21.555 E27.09495
G1 X98.883 Y21.555 E28.40095
G1 X99.406 Y21.032 E28.53819
G1 X99.406 Y16.891 E29.30656
G1 E28.30656 F1800.00000
G92 E0
G1 X105.352 Y24.002 F7800.000
G1 E1.00000 F1800.00000
G1 X91.743 Y23.991 E3.52548 F126.000
G1 X91.478 Y23.899 E3.57754
G1 X91.266 Y23.716 E3.62957
G1 X91.143 Y23.482 E3.67865
G1 X91.105 Y23.282 E3.71631
G1 X91.143 Y23.021 E3.76540
G1 X91.266 Y22.786 E3.81448
G1 X91.425 Y22.637 E3.85508
G1 X91.743 Y22.511 E3.91850
G1 X100.352 Y22.501 E5.51610
G1 X100.352 Y17.501 E6.44384
G1 X105.352 Y17.501 E7.37170
G1 X105.352 Y11.501 E8.48507
G1 X91.790 Y11.493 E11.00178
G1 X91.639 Y11.454 E11.03076
G1 X91.513 Y11.363 E11.05972
G1 X91.413 Y11.242 E11.08868
G1 X91.365 Y11.094 E11.11771
G1 X91.356 Y10.959 E11.14285
G1 X91.374 Y10.862 E11.16108
G1 X91.431 Y10.739 E11.18616
G1 X91.514 Y10.639 E11.21030
G1 X91.669 Y10.537 E11.24470
G1 X91.884 Y10.501 E11.28517
G1 X106.352 Y10.501 E13.97011
G1 X106.352 Y45.914 E20.54170
G1 X106.975 Y46.116 E20.66314
G1 X107.321 Y46.279 E20.73420
G1 X107.644 Y46.484 E20.80525
G1 X107.939 Y46.729 E20.87631
G1 X108.202 Y47.008 E20.94736
G1 X108.427 Y47.317 E21.01841
G1 X108.611 Y47.653 E21.08947
G1 X108.752 Y48.009 E21.16053
G1 X108.847 Y48.380 E21.23158
G1 X108.895 Y48.760 E21.30264
G1 X108.895 Y49.143 E21.37369
G1 X108.850 Y49.502 E21.44088
G1 X108.751 Y49.895 E21.51604
G1 X108.611 Y50.249 E21.58682
G1 X108.427 Y50.585 E21.65788
G1 X107.952 Y51.238 E21.80779
G1 X107.865 Y50.551 E21.93635
G1 X107.711 Y50.077 E22.02896
G1 X107.443 Y49.655 E22.12154
G1 X107.255 Y49.455 E22.17254
G1 X107.036 Y49.276 E22.22514
G1 X106.622 Y49.049 E22.31272
G1 X106.362 Y48.965 E22.36337
G1 X106.094 Y48.913 E22.41409
G1 X105.595 Y48.913 E22.50668
G1 X105.097 Y49.041 E22.60215
G1 X104.669 Y49.276 E22.69267
G1 X104.437 Y49.465 E22.74821
G1 X104.118 Y49.851 E22.84108
G1 X103.899 Y50.316 E22.93661
G1 X103.729 Y51.206 E23.10467
G1 X103.278 Y50.585 E23.24713
G1 X103.093 Y50.249 E23.31819
G1 X102.952 Y49.893 E23.38925
G1 X102.862 Y49.543 E23.45644
G1 X102.809 Y49.141 E23.53160
G1 X102.809 Y48.760 E23.60238
G1 X102.857 Y48.380 E23.67343
G1 X102.952 Y48.009 E23.74448
G1 X103.093 Y47.653 E23.81554
G1 X103.278 Y47.317 E23.88660
G1 X103.503 Y47.008 E23.95765
G1 X103.765 Y46.729 E24.02870
G1 X104.060 Y46.484 E24.09976
G1 X104.383 Y46.279 E24.17081
G1 X104.730 Y46.116 E24.24187
G1 X105.352 Y45.914 E24.36331
G1 X105.352 Y24.077 E28.41571
G1 X105.353 Y23.502 F7800.000
G1 X105.460 Y23.109 F7800.000
G1 X101.245 Y23.106 E29.19782 F180.000
G1 X101.245 Y18.394 E30.07220
G1 X105.460 Y18.394 E30.85431
G1 X105.460 Y23.034 E31.71537
G1 X104.567 Y22.216 F7800.000
G1 X102.138 Y22.214 E32.16616 F180.000
G1 X102.138 Y19.287 E32.70935
G1 X104.567 Y19.287 E33.16014
G1 X104.567 Y22.141 E33.68975
G1 E32.68975 F1800.00000
G92 E0
G1 X103.577 Y48.855 F7800.000
G1 E1.00000 F1800.00000
G1 X103.903 Y48.034 E1.16399 F180.000
G1 X104.033 Y47.797 E1.21421
G1 X104.192 Y47.578 E1.26441
G1 X104.377 Y47.381 E1.31461
G1 X104.586 Y47.208 E1.36484
G1 X104.814 Y47.063 E1.41504
G1 X105.059 Y46.948 E1.46525
G1 X105.852 Y46.690 E1.62001
G1 X106.645 Y46.948 E1.77477
G1 X106.890 Y47.063 E1.82498
G1 X107.119 Y47.208 E1.87518
G1 X107.327 Y47.381 E1.92541
G1 X107.512 Y47.578 E1.97561
G1 X107.671 Y47.797 E2.02581
G1 X107.802 Y48.034 E2.07603
G1 X108.127 Y48.855 E2.24002
G1 X106.977 Y48.226 E2.48330
G1 X106.585 Y48.098 E2.55989
G1 X106.178 Y48.021 E2.63667
G1 X105.482 Y48.021 E2.76586
G1 X104.766 Y48.204 E2.90305
G1 X103.643 Y48.819 E3.14061
G1 X105.852 Y46.221 F7800.000
G1 X105.852 Y23.556 E7.34662 F120.000
G1 X103.106 Y21.665 F7800.000
G1 X102.687 Y21.246 E7.54873 F360.000
G1 X103.599 Y19.836 E8.12182
G1 X104.017 Y20.255 E8.32393
G1 X105.852 Y17.947 F7800.000
G1 X105.843 Y11.011 E9.61123 F120.000
G1 X91.806 Y11.004 E12.21599
G1 E11.21599 F1800.00000
G92 E0
G1 X91.563 Y23.305 F7800.000
G1 E1.00000 F1800.00000
G1 X91.853 Y23.251 E1.05460 F120.000
G1 X97.753 Y23.250 E2.14956
G1 X97.753 Y23.250 F7800.000
G1 X100.799 Y23.249 E3.34777 F120.000
G1 E2.34777 F1800.00000
G92 E0
G1 Z0.900 F7800.000
G1 X103.553 Y49.446 F7800.000
G1 E1.00000 F1800.00000
G1 X103.503 Y49.090 E1.02934 F1800.000
G1 X103.503 Y48.803 E1.05272
G1 X103.540 Y48.510 E1.07686
G1 X103.613 Y48.224 E1.10099
G1 X103.722 Y47.949 E1.12513
G1 X103.865 Y47.690 E1.14926
G1 X104.038 Y47.450 E1.17339
G1 X104.241 Y47.235 E1.19752
G1 X104.469 Y47.046 E1.22167
G1 X104.718 Y46.888 E1.24580
G1 X104.986 Y46.762 E1.26993
G1 X105.852 Y46.481 E1.34432
G1 X106.719 Y46.762 E1.41871
G1 X106.986 Y46.888 E1.44284
G1 X107.236 Y47.046 E1.46698
G1 X107.464 Y47.235 E1.49112
G1 X107.666 Y47.450 E1.51525
G1 X107.840 Y47.690 E1.53938
G1 X107.982 Y47.949 E1.56352
G1 X108.091 Y48.224 E1.58765
G1 X108.152 Y48.459 E1.60745
G1 X108.202 Y48.813 E1.63664
G1 X108.202 Y49.450 E1.68869
G1 X107.726 Y48.943 E1.74548
G1 X107.404 Y48.685 E1.77915
G1 X106.896 Y48.409 E1.82633
G1 X106.535 Y48.292 E1.85732
G1 X106.159 Y48.220 E1.88853
G1 X105.507 Y48.220 E1.94177
G1 X104.842 Y48.391 E1.99787
G1 X104.301 Y48.685 E2.04813
G1 X103.949 Y48.967 E2.08488
G1 X103.601 Y49.388 E2.12951
G1 E1.12951 F1800.00000
G92 E0
G1 X105.659 Y23.308 F7800.000
G1 E1.00000 F1800.00000
G1 X101.046 Y23.305 E1.37659 F1800.000
G1 X101.046 Y18.195 E1.79376
G1 X105.659 Y18.195 E2.17035
G1 X105.659 Y23.233 E2.58168
G1 X105.555 Y23.799 F7800.000
G1 X91.750 Y23.789 E3.70862 F1800.000
G1 X91.559 Y23.713 E3.72538
G1 X91.409 Y23.573 E3.74212
G1 X91.337 Y23.419 E3.75603
G1 X91.305 Y23.251 E3.76995
G1 X91.337 Y23.084 E3.78387
G1 X91.409 Y22.929 E3.79779
G1 X91.559 Y22.789 E3.81453
G1 X91.750 Y22.713 E3.83128
G1 X100.555 Y22.703 E4.55006
G1 X100.555 Y17.704 E4.95815
G1 X105.555 Y17.704 E5.36631
G1 X105.555 Y11.299 E5.88914
G1 X91.816 Y11.291 E7.01068
G1 X91.727 Y11.268 E7.01819
G1 X91.637 Y11.202 E7.02728
G1 X91.565 Y11.051 E7.04092
G1 X91.560 Y10.964 E7.04806
G1 X91.594 Y10.859 E7.05708
G1 X91.652 Y10.788 E7.06457
G1 X91.742 Y10.723 E7.07363
G1 X91.896 Y10.704 E7.08632
G1 X106.150 Y10.704 E8.24986
G1 X106.150 Y46.061 E11.13618
G1 X106.900 Y46.305 E11.20058
G1 X107.223 Y46.457 E11.22975
G1 X107.525 Y46.649 E11.25893
G1 X107.801 Y46.876 E11.28811
G1 X108.045 Y47.137 E11.31728
G1 X108.255 Y47.426 E11.34646
G1 X108.427 Y47.739 E11.37564
G1 X108.559 Y48.072 E11.40481
G1 X108.634 Y48.363 E11.42934
G1 X108.693 Y48.778 E11.46357
G1 X108.693 Y49.130 E11.49231
G1 X108.648 Y49.484 E11.52148
G1 X108.559 Y49.831 E11.55066
G1 X108.427 Y50.163 E11.57984
G1 X108.128 Y50.707 E11.63051
G1 X107.895 Y49.990 E11.69207
G1 X107.604 Y49.531 E11.73646
G1 X107.391 Y49.304 E11.76181
G1 X107.131 Y49.095 E11.78908
G1 X106.701 Y48.862 E11.82898
G1 X106.413 Y48.768 E11.85376
G1 X106.113 Y48.711 E11.87867
G1 X105.569 Y48.711 E11.92306
G1 X105.023 Y48.851 E11.96913
G1 X104.574 Y49.095 E12.01085
G1 X104.296 Y49.318 E12.03993
G1 X103.946 Y49.741 E12.08475
G1 X103.705 Y50.253 E12.13096
G1 X103.607 Y50.764 E12.17338
G1 X103.277 Y50.163 E12.22934
G1 X103.145 Y49.831 E12.25852
G1 X103.071 Y49.540 E12.28304
G1 X103.012 Y49.124 E12.31728
G1 X103.012 Y48.772 E12.34601
G1 X103.057 Y48.418 E12.37519
G1 X103.145 Y48.072 E12.40437
G1 X103.277 Y47.739 E12.43354
G1 X103.449 Y47.426 E12.46272
G1 X103.659 Y47.137 E12.49190
G1 X103.904 Y46.876 E12.52107
G1 X104.179 Y46.649 E12.55025
G1 X104.481 Y46.457 E12.57943
G1 X104.805 Y46.305 E12.60860
G1 X105.555 Y46.061 E12.67300
G1 X105.555 Y23.874 E14.48418
G1 X105.102 Y24.251 F7800.000
G1 X91.719 Y24.241 E15.40593 F1260.000
G1 X91.611 Y24.221 E15.41350
G1 X91.364 Y24.123 E15.43182
G1 X91.271 Y24.064 E15.43938
G1 X91.077 Y23.882 E15.45770
G1 X91.013 Y23.793 E15.46526
G1 X90.903 Y23.560 E15.48303
G1 X90.855 Y23.306 E15.50081
G1 X90.855 Y23.196 E15.50837
G1 X90.903 Y22.943 E15.52615
G1 X91.013 Y22.709 E15.54393
G1 X91.077 Y22.620 E15.55148
G1 X91.271 Y22.438 E15.56981
G1 X91.364 Y22.380 E15.57737
G1 X91.611 Y22.282 E15.59569
G1 X91.719 Y22.261 E15.60326
G1 X100.102 Y22.251 E16.18063
G1 X100.102 Y17.251 E16.52498
G1 X105.102 Y17.251 E16.86936
G1 X105.102 Y11.751 E17.24816
G1 X91.759 Y11.743 E18.16721
G1 X91.498 Y11.661 E18.18600
G1 X91.334 Y11.542 E18.20001
G1 X91.183 Y11.333 E18.21774
G1 X91.117 Y11.140 E18.23180
G1 X91.115 Y10.869 E18.25048
G1 X91.178 Y10.675 E18.26449
G1 X91.340 Y10.456 E18.28328
G1 X91.576 Y10.304 E18.30261
G1 X91.868 Y10.251 E18.32302
G1 X106.602 Y10.251 E19.33785
G1 X106.602 Y45.732 E21.78162
G1 X107.067 Y45.883 E21.81526
G1 X107.442 Y46.060 E21.84380
G1 X107.792 Y46.282 E21.87234
G1 X108.111 Y46.546 E21.90088
G1 X108.395 Y46.848 E21.92942
G1 X108.638 Y47.183 E21.95796
G1 X108.838 Y47.546 E21.98650
G1 X108.990 Y47.932 E22.01504
G1 X109.078 Y48.274 E22.03941
G1 X109.145 Y48.746 E22.07222
G1 X109.145 Y49.158 E22.10062
G1 X109.093 Y49.569 E22.12916
G1 X108.990 Y49.971 E22.15770
G1 X108.838 Y50.356 E22.18624
G1 X108.638 Y50.719 E22.21478
G1 X108.395 Y51.054 E22.24332
G1 X108.111 Y51.356 E22.27185
G1 X107.649 Y51.738 E22.31313
G1 X107.649 Y50.838 E22.37513
G1 X107.620 Y50.606 E22.39125
G1 X107.483 Y50.184 E22.42182
G1 X107.245 Y49.809 E22.45238
G1 X107.083 Y49.637 E22.46862
G1 X106.879 Y49.474 E22.48665
G1 X106.522 Y49.279 E22.51466
G1 X106.300 Y49.207 E22.53074
G1 X106.070 Y49.163 E22.54685
G1 X105.626 Y49.163 E22.57741
G1 X105.190 Y49.276 E22.60848
G1 X104.825 Y49.474 E22.63704
G1 X104.615 Y49.642 E22.65561
G1 X104.331 Y49.986 E22.68631
G1 X104.138 Y50.394 E22.71741
G1 X104.055 Y50.830 E22.74798
G1 X104.055 Y51.738 E22.81053
G1 X103.594 Y51.356 E22.85181
G1 X103.310 Y51.054 E22.88034
G1 X103.066 Y50.719 E22.90888
G1 X102.867 Y50.356 E22.93742
G1 X102.714 Y49.971 E22.96596
G1 X102.626 Y49.628 E22.99033
G1 X102.559 Y49.156 E23.02314
G1 X102.559 Y48.744 E23.05154
G1 X102.611 Y48.333 E23.08008
G1 X102.714 Y47.932 E23.10862
G1 X102.867 Y47.546 E23.13716
G1 X103.066 Y47.183 E23.16570
G1 X103.310 Y46.848 E23.19424
G1 X103.594 Y46.546 E23.22277
G1 X103.913 Y46.282 E23.25132
G1 X104.263 Y46.060 E23.27985
G1 X104.638 Y45.883 E23.30839
G1 X105.102 Y45.732 E23.34204
G1 X105.102 Y24.326 E24.81638
G1 X105.103 Y23.751 F7800.000
G1 X105.852 Y23.554 F7800.000
G1 X105.852 Y46.223 E26.66688 F1200.000
G1 X106.048 Y46.824 F7800.000
G1 X104.804 Y48.068 E26.83347 F3600.000
G1 X105.751 Y47.927 E26.92407
G1 X106.656 Y47.021 E27.04534
G1 X107.164 Y47.318 E27.10111
G1 X106.482 Y48.001 E27.19257
G1 X107.074 Y48.214 E27.25218
G1 X107.558 Y47.730 E27.31703
G1 X107.824 Y48.270 E27.37400
G1 X107.585 Y48.509 E27.40600
G1 X104.781 Y47.285 F7800.000
G1 X104.194 Y47.872 E27.48460 F3600.000
G1 E26.48460 F1800.00000
G92 E0
G1 X105.118 Y23.015 F7800.000
G1 E1.00000 F1800.00000
G1 X105.366 Y22.767 E1.03024 F3600.000
G1 X105.366 Y22.034 E1.09334
G1 X104.386 Y23.014 E1.21275
G1 X103.654 Y23.014 E1.27581
G1 X105.366 Y21.302 E1.48439
G1 X105.366 Y20.569 E1.54749
G1 X102.922 Y23.013 E1.84524
G1 X102.190 Y23.013 E1.90830
G1 X105.366 Y19.837 E2.29522
G1 X105.366 Y19.104 E2.35832
G1 X101.458 Y23.012 E2.83441
G1 X101.339 Y22.399 E2.88826
G1 X105.250 Y18.488 E3.36469
G1 X104.517 Y18.488 E3.42779
G1 X101.339 Y21.666 E3.81498
G1 X101.339 Y20.933 E3.87808
G1 X103.785 Y18.488 E4.17603
G1 X103.052 Y18.488 E4.23914
G1 X101.339 Y20.201 E4.44785
G1 X101.339 Y19.468 E4.51095
G1 X102.320 Y18.488 E4.63043
G1 X101.587 Y18.488 E4.69353
G1 X101.339 Y18.736 E4.72377
G1 X100.800 Y23.249 F7800.000
G1 X91.853 Y23.251 E6.31232 F1200.000
G1 X91.565 Y23.306 E6.36427
G1 E5.36427 F1800.00000
G92 E0
G1 X91.808 Y11.004 F7800.000
G1 E1.00000 F1800.00000
G1 X105.843 Y11.010 E2.14570 F1200.000
G1 X105.852 Y17.949 E2.71214
G1 E1.71214 F1800.00000
G92 E0
G1 Z1.300 F7800.000
G1 X103.556 Y49.442 F7800.000
G1 E1.00000 F1800.00000
G1 X103.503 Y49.085 E1.02945 F1800.000
G1 X103.503 Y48.803 E1.05248
G1 X103.540 Y48.510 E1.07661
G1 X103.613 Y48.224 E1.10075
G1 X103.691 Y48.027 E1.11798
G1 X103.873 Y47.679 E1.15007
G1 X104.038 Y47.450 E1.17310
G1 X104.241 Y47.235 E1.19723
G1 X104.469 Y47.046 E1.22137
G1 X104.718 Y46.888 E1.24550
G1 X104.986 Y46.762 E1.26963
G1 X105.852 Y46.481 E1.34403
G1 X106.719 Y46.762 E1.41841
G1 X106.986 Y46.888 E1.44255
G1 X107.236 Y47.046 E1.46668
G1 X107.464 Y47.235 E1.49082
G1 X107.666 Y47.450 E1.51495
G1 X107.840 Y47.690 E1.53908
G1 X107.982 Y47.949 E1.56322
G1 X108.091 Y48.224 E1.58736
G1 X108.165 Y48.510 E1.61149
G1 X108.202 Y48.803 E1.63563
G1 X108.202 Y49.411 E1.68523
G1 X107.470 Y48.724 E1.76715
G1 X106.899 Y48.410 E1.82040
G1 X106.535 Y48.292 E1.85162
G1 X106.159 Y48.220 E1.88283
G1 X105.507 Y48.220 E1.93607
G1 X104.839 Y48.392 E1.99240
G1 X104.267 Y48.706 E2.04565
