; generated by Slic3r 1.2.9 on 2017-10-10 at 12:46:09

; external perimeters extrusion width = 0.50mm
; perimeters extrusion width = 0.58mm
; infill extrusion width = 0.58mm
; solid infill extrusion width = 0.58mm
; top infill extrusion width = 0.58mm
; support material extrusion width = 0.50mm

;M104 S200 ; set temperature
G28 ; home all axes
G1 Z5 F5000 ; lift nozzle
;M190 S65 ; set bed temperature
G21 ; set units to millimeters
G90 ; use absolute coordinates
M82 ; use absolute distances for extrusion
G92 E0
G1 E-1.00000 F1800.00000
G92 E0
G1 Z0.500 F7800.000
G1 X99.406 Y16.816 F7800.000
G1 E1.00000 F1800.00000
G1 X99.667 Y16.555 E1.06862 F360.000
G1 X103.883 Y16.555 E1.85091
G1 X104.406 Y16.032 E1.98815
G1 X104.406 Y12.970 E2.55626
G1 X103.883 Y12.447 E2.69350
G1 X91.845 Y12.447 E4.92735
G1 X91.506 Y12.406 E4.99075
G1 X91.168 Y12.275 E5.05803
G1 X90.872 Y12.065 E5.12531
G1 X90.639 Y11.788 E5.19260
G1 X90.481 Y11.461 E5.25988
G1 X90.410 Y11.106 E5.32717
G1 X90.429 Y10.744 E5.39445
G1 X90.538 Y10.398 E5.46172
G1 X90.729 Y10.090 E5.52901
G1 X90.872 Y9.937 E5.56791
G1 X91.168 Y9.727 E5.63518
G1 X91.506 Y9.597 E5.70248
G1 X91.845 Y9.555 E5.76588
G1 X107.037 Y9.555 E8.58505
G1 X107.299 Y9.816 E8.65367
G1 X107.299 Y79.902 E21.65954
G1 X107.547 Y80.323 E21.75018
G1 X108.190 Y80.710 E21.88942
G1 X108.578 Y81.028 E21.98255
G1 X108.923 Y81.393 E22.07567
G1 X109.219 Y81.798 E22.16880
G1 X109.462 Y82.237 E22.26194
G1 X109.649 Y82.703 E22.35508
G1 X109.775 Y83.189 E22.44820
G1 X109.842 Y83.714 E22.54653
G1 X109.840 Y84.216 E22.63966
G1 X109.775 Y84.714 E22.73280
G1 X109.657 Y85.173 E22.82073
G1 X109.474 Y85.640 E22.91386
G1 X109.234 Y86.081 E23.00700
G1 X108.940 Y86.488 E23.10014
G1 X108.578 Y86.874 E23.19845
G1 X108.190 Y87.192 E23.29158
G1 X107.790 Y87.446 E23.37953
G1 X107.367 Y87.647 E23.46635
G1 X106.953 Y87.384 E23.55742
G1 X106.953 Y85.910 E23.83098
G1 X106.929 Y85.717 E23.86702
G1 X106.860 Y85.508 E23.90791
G1 X106.767 Y85.338 E23.94395
G1 X106.626 Y85.168 E23.98486
G1 X106.407 Y85.000 E24.03609
G1 X106.231 Y84.917 E24.07215
G1 X106.018 Y84.862 E24.11301
G1 X105.686 Y84.862 E24.17458
G1 X105.473 Y84.917 E24.21544
G1 X105.297 Y85.000 E24.25150
G1 X105.119 Y85.129 E24.29238
G1 X104.986 Y85.271 E24.32843
G1 X104.844 Y85.508 E24.37967
G1 X104.796 Y85.638 E24.40533
G1 X104.755 Y85.854 E24.44621
G1 X104.752 Y87.384 E24.73018
G1 X104.337 Y87.647 E24.82124
G1 X103.915 Y87.446 E24.90807
G1 X103.515 Y87.192 E24.99601
G1 X103.127 Y86.874 E25.08915
G1 X102.782 Y86.509 E25.18226
G1 X102.486 Y86.104 E25.27540
G1 X102.242 Y85.665 E25.36854
G1 X102.056 Y85.199 E25.46168
G1 X101.929 Y84.714 E25.55480
G1 X101.863 Y84.188 E25.65313
G1 X101.865 Y83.686 E25.74626
G1 X101.929 Y83.189 E25.83939
G1 X102.047 Y82.730 E25.92733
G1 X102.230 Y82.262 E26.02045
G1 X102.471 Y81.822 E26.11359
G1 X102.764 Y81.415 E26.20674
G1 X103.127 Y81.028 E26.30505
G1 X103.515 Y80.710 E26.39818
G1 X104.157 Y80.323 E26.53742
G1 X104.406 Y79.902 E26.62806
G1 X104.406 Y25.470 E36.72898
G1 X103.883 Y24.947 E36.86622
G1 X91.845 Y24.947 E39.10007
G1 X91.626 Y24.932 E39.14089
G1 X91.241 Y24.834 E39.21463
G1 X91.023 Y24.731 E39.25935
G1 X90.844 Y24.615 E39.29890
G1 X90.554 Y24.343 E39.37263
G1 X90.427 Y24.172 E39.41218
G1 X90.311 Y23.961 E39.45690
G1 X90.235 Y23.762 E39.49644
G1 X90.160 Y23.372 E39.57017
G1 X90.160 Y23.131 E39.61491
G1 X90.235 Y22.740 E39.68866
G1 X90.323 Y22.516 E39.73337
G1 X90.523 Y22.198 E39.80308
G1 X90.681 Y22.024 E39.84664
G1 X90.867 Y21.870 E39.89137
G1 X91.215 Y21.679 E39.96512
G1 X91.444 Y21.605 E40.00984
G1 X91.845 Y21.555 E40.08487
G1 X98.883 Y21.555 E41.39087
G1 X99.406 Y21.032 E41.52810
G1 X99.406 Y16.891 E42.29648
G1 E41.29648 F1800.00000
G92 E0
G1 X105.352 Y24.002 F7800.000
G1 E1.00000 F1800.00000
G1 X91.743 Y23.991 E3.52548 F126.000
G1 X91.478 Y23.899 E3.57754
G1 X91.266 Y23.716 E3.62957
G1 X91.143 Y23.482 E3.67865
G1 X91.105 Y23.282 E3.71631
G1 X91.143 Y23.021 E3.76540
G1 X91.266 Y22.786 E3.81448
G1 X91.425 Y22.637 E3.85508
G1 X91.743 Y22.511 E3.91850
G1 X100.352 Y22.501 E5.51610
G1 X100.352 Y17.501 E6.44384
G1 X105.352 Y17.501 E7.37170
G1 X105.352 Y11.501 E8.48507
G1 X91.790 Y11.493 E11.00178
G1 X91.639 Y11.454 E11.03076
G1 X91.512 Y11.362 E11.05980
G1 X91.413 Y11.243 E11.08854
G1 X91.355 Y11.065 E11.12337
G1 X91.365 Y10.908 E11.15251
G1 X91.413 Y10.760 E11.18149
G1 X91.520 Y10.630 E11.21256
G1 X91.602 Y10.570 E11.23152
G1 X91.729 Y10.521 E11.25666
G1 X91.884 Y10.501 E11.28569
G1 X106.352 Y10.501 E13.97063
G1 X106.352 Y80.914 E27.03719
G1 X106.975 Y81.116 E27.15863
G1 X107.321 Y81.279 E27.22969
G1 X107.644 Y81.484 E27.30074
G1 X107.939 Y81.729 E27.37180
G1 X108.202 Y82.008 E27.44285
G1 X108.427 Y82.317 E27.51390
G1 X108.611 Y82.653 E27.58496
G1 X108.752 Y83.009 E27.65602
G1 X108.842 Y83.360 E27.72321
G1 X108.895 Y83.761 E27.79837
G1 X108.895 Y84.143 E27.86915
G1 X108.850 Y84.502 E27.93634
G1 X108.751 Y84.895 E28.01150
G1 X108.611 Y85.249 E28.08228
G1 X108.427 Y85.585 E28.15334
G1 X107.952 Y86.238 E28.30325
G1 X107.865 Y85.551 E28.43181
G1 X107.711 Y85.077 E28.52441
G1 X107.435 Y84.642 E28.61995
G1 X107.071 Y84.300 E28.71254
G1 X106.827 Y84.145 E28.76621
G1 X106.378 Y83.968 E28.85585
G1 X106.094 Y83.913 E28.90951
G1 X105.595 Y83.913 E29.00210
G1 X105.097 Y84.041 E29.09757
G1 X104.669 Y84.276 E29.18809
G1 X104.437 Y84.465 E29.24362
G1 X104.118 Y84.851 E29.33649
G1 X103.899 Y85.316 E29.43203
G1 X103.729 Y86.206 E29.60009
G1 X103.278 Y85.585 E29.74255
G1 X103.093 Y85.249 E29.81361
G1 X102.952 Y84.893 E29.88466
G1 X102.862 Y84.543 E29.95186
G1 X102.809 Y84.141 E30.02702
G1 X102.809 Y83.760 E30.09779
G1 X102.857 Y83.380 E30.16885
G1 X102.952 Y83.009 E30.23990
G1 X103.093 Y82.653 E30.31095
G1 X103.278 Y82.317 E30.38202
G1 X103.503 Y82.008 E30.45307
G1 X103.765 Y81.729 E30.52411
G1 X104.060 Y81.484 E30.59518
G1 X104.383 Y81.279 E30.66623
G1 X104.730 Y81.116 E30.73728
G1 X105.352 Y80.914 E30.85873
G1 X105.352 Y24.077 E41.40610
G1 X105.353 Y23.502 F7800.000
G1 X105.460 Y23.109 F7800.000
G1 X101.245 Y23.106 E42.18820 F180.000
G1 X101.245 Y18.394 E43.06259
G1 X105.460 Y18.394 E43.84470
G1 X105.460 Y23.034 E44.70575
G1 X104.567 Y22.216 F7800.000
G1 X102.138 Y22.214 E45.15654 F180.000
G1 X102.138 Y19.287 E45.69974
G1 X104.567 Y19.287 E46.15052
G1 X104.567 Y22.141 E46.68014
G1 E45.68014 F1800.00000
G92 E0
G1 X107.926 Y83.347 F7800.000
G1 E1.00000 F1800.00000
G1 X107.626 Y83.595 E1.07221 F180.000
G1 X107.234 Y83.346 E1.15835
G1 X106.628 Y83.107 E1.27929
G1 X106.178 Y83.021 E1.36427
G1 X105.482 Y83.021 E1.49345
G1 X104.766 Y83.204 E1.63064
G1 X103.577 Y83.855 E1.88212
G1 X103.903 Y83.034 E2.04611
G1 X104.033 Y82.797 E2.09633
G1 X104.192 Y82.578 E2.14653
G1 X104.377 Y82.381 E2.19673
G1 X104.586 Y82.208 E2.24696
G1 X104.814 Y82.063 E2.29716
G1 X105.059 Y81.948 E2.34737
G1 X105.852 Y81.690 E2.50213
G1 X106.645 Y81.948 E2.65689
G1 X106.890 Y82.063 E2.70710
G1 X107.119 Y82.208 E2.75730
G1 X107.327 Y82.381 E2.80753
G1 X107.512 Y82.578 E2.85773
G1 X107.671 Y82.797 E2.90793
G1 X107.802 Y83.034 E2.95815
G1 X107.898 Y83.277 E3.00675
G1 X105.852 Y81.221 F7800.000
G1 X105.852 Y23.556 E13.70774 F120.000
G1 X103.106 Y21.665 F7800.000
G1 X102.687 Y21.246 E13.90985 F360.000
G1 X103.599 Y19.836 E14.48294
G1 X104.017 Y20.255 E14.68505
G1 X105.852 Y17.947 F7800.000
G1 X105.843 Y11.011 E15.97234 F120.000
G1 X91.807 Y10.998 E18.57707
G1 E17.57707 F1800.00000
G92 E0
G1 X91.563 Y23.305 F7800.000
G1 E1.00000 F1800.00000
G1 X91.853 Y23.251 E1.05460 F120.000
G1 X97.753 Y23.250 E2.14956
G1 X97.753 Y23.250 F7800.000
G1 X100.799 Y23.249 E3.34777 F120.000
G1 E2.34777 F1800.00000
G92 E0
G1 Z0.900 F7800.000
G1 X108.202 Y84.411 F7800.000
G1 E1.00000 F1800.00000
G1 X107.498 Y83.750 E1.07882 F1800.000
G1 X107.143 Y83.525 E1.11313
G1 X106.572 Y83.299 E1.16326
G1 X106.159 Y83.220 E1.19757
G1 X105.507 Y83.220 E1.25080
G1 X104.839 Y83.392 E1.30714
G1 X104.267 Y83.706 E1.36038
G1 X103.944 Y83.974 E1.39469
G1 X103.547 Y84.453 E1.44543
G1 X103.503 Y84.099 E1.47453
G1 X103.503 Y83.803 E1.49867
G1 X103.540 Y83.510 E1.52280
G1 X103.613 Y83.224 E1.54694
G1 X103.722 Y82.949 E1.57107
G1 X103.865 Y82.690 E1.59521
G1 X104.038 Y82.450 E1.61934
G1 X104.241 Y82.235 E1.64347
G1 X104.469 Y82.046 E1.66761
G1 X104.718 Y81.888 E1.69174
G1 X104.986 Y81.762 E1.71588
G1 X105.852 Y81.481 E1.79027
G1 X106.719 Y81.762 E1.86466
G1 X106.986 Y81.888 E1.88879
G1 X107.236 Y82.046 E1.91292
G1 X107.464 Y82.235 E1.93706
G1 X107.666 Y82.450 E1.96119
G1 X107.840 Y82.690 E1.98532
G1 X107.982 Y82.949 E2.00946
G1 X108.091 Y83.224 E2.03360
G1 X108.165 Y83.510 E2.05773
G1 X108.202 Y83.803 E2.08187
G1 X108.202 Y84.336 E2.12535
G1 E1.12535 F1800.00000
G92 E0
G1 X105.659 Y23.308 F7800.000
G1 E1.00000 F1800.00000
G1 X101.046 Y23.305 E1.37659 F1800.000
G1 X101.046 Y18.195 E1.79376
G1 X105.659 Y18.195 E2.17035
G1 X105.659 Y23.233 E2.58168
G1 X105.555 Y23.799 F7800.000
G1 X91.750 Y23.789 E3.70862 F1800.000
G1 X91.559 Y23.713 E3.72538
G1 X91.409 Y23.573 E3.74212
G1 X91.337 Y23.419 E3.75603
G1 X91.305 Y23.251 E3.76995
G1 X91.337 Y23.084 E3.78387
G1 X91.409 Y22.929 E3.79779
G1 X91.559 Y22.789 E3.81453
G1 X91.750 Y22.713 E3.83128
G1 X100.555 Y22.703 E4.55006
G1 X100.555 Y17.704 E4.95815
G1 X105.555 Y17.704 E5.36631
G1 X105.555 Y11.299 E5.88914
G1 X91.816 Y11.291 E7.01068
G1 X91.727 Y11.268 E7.01819
G1 X91.652 Y11.214 E7.02569
G1 X91.594 Y11.143 E7.03319
G1 X91.560 Y11.038 E7.04221
G1 X91.594 Y10.858 E7.05715
G1 X91.675 Y10.760 E7.06753
G1 X91.780 Y10.718 E7.07674
G1 X91.896 Y10.704 E7.08635
G1 X106.150 Y10.704 E8.24988
G1 X106.150 Y81.061 E13.99335
G1 X106.900 Y81.305 E14.05775
G1 X107.223 Y81.457 E14.08692
G1 X107.525 Y81.649 E14.11610
G1 X107.801 Y81.876 E14.14528
G1 X108.045 Y82.137 E14.17445
G1 X108.255 Y82.426 E14.20363
G1 X108.427 Y82.739 E14.23281
G1 X108.559 Y83.072 E14.26199
G1 X108.648 Y83.418 E14.29116
G1 X108.693 Y83.772 E14.32034
G1 X108.693 Y84.130 E14.34951
G1 X108.648 Y84.484 E14.37869
G1 X108.559 Y84.831 E14.40787
G1 X108.427 Y85.163 E14.43704
G1 X108.128 Y85.707 E14.48772
G1 X107.895 Y84.990 E14.54928
G1 X107.592 Y84.512 E14.59549
G1 X107.196 Y84.140 E14.63987
G1 X106.919 Y83.964 E14.66660
G1 X106.435 Y83.772 E14.70916
G1 X106.113 Y83.711 E14.73589
G1 X105.569 Y83.711 E14.78027
G1 X105.021 Y83.852 E14.82648
G1 X104.545 Y84.114 E14.87087
G1 X104.292 Y84.322 E14.89760
G1 X103.946 Y84.741 E14.94198
G1 X103.705 Y85.253 E14.98818
G1 X103.607 Y85.764 E15.03060
G1 X103.277 Y85.163 E15.08657
G1 X103.145 Y84.831 E15.11575
G1 X103.057 Y84.484 E15.14492
G1 X103.012 Y84.130 E15.17410
G1 X103.012 Y83.772 E15.20328
G1 X103.057 Y83.418 E15.23245
G1 X103.145 Y83.072 E15.26163
G1 X103.277 Y82.739 E15.29081
G1 X103.449 Y82.426 E15.31999
G1 X103.659 Y82.137 E15.34916
G1 X103.904 Y81.876 E15.37833
G1 X104.179 Y81.649 E15.40752
G1 X104.481 Y81.457 E15.43669
G1 X104.805 Y81.305 E15.46587
G1 X105.555 Y81.061 E15.53026
G1 X105.555 Y23.874 E20.19859
G1 X105.102 Y24.251 F7800.000
G1 X91.719 Y24.241 E21.12034 F1260.000
G1 X91.611 Y24.221 E21.12790
G1 X91.364 Y24.123 E21.14623
G1 X91.271 Y24.064 E21.15378
G1 X91.077 Y23.882 E21.17211
G1 X91.013 Y23.793 E21.17966
G1 X90.903 Y23.560 E21.19744
G1 X90.855 Y23.306 E21.21522
G1 X90.855 Y23.196 E21.22278
G1 X90.903 Y22.943 E21.24056
G1 X91.013 Y22.709 E21.25834
G1 X91.077 Y22.620 E21.26589
G1 X91.271 Y22.438 E21.28422
G1 X91.364 Y22.380 E21.29177
G1 X91.611 Y22.282 E21.31010
G1 X91.719 Y22.261 E21.31766
G1 X100.102 Y22.251 E21.89504
G1 X100.102 Y17.251 E22.23939
G1 X105.102 Y17.251 E22.58376
G1 X105.102 Y11.751 E22.96257
G1 X91.759 Y11.743 E23.88161
G1 X91.498 Y11.661 E23.90040
G1 X91.340 Y11.546 E23.91387
G1 X91.178 Y11.327 E23.93265
G1 X91.115 Y11.134 E23.94666
G1 X91.117 Y10.861 E23.96545
G1 X91.178 Y10.675 E23.97891
G1 X91.335 Y10.461 E23.99722
G1 X91.485 Y10.349 E24.01009
G1 X91.666 Y10.277 E24.02355
G1 X91.868 Y10.251 E24.03756
G1 X106.602 Y10.251 E25.05238
G1 X106.602 Y80.732 E29.90678
G1 X107.067 Y80.883 E29.94042
G1 X107.442 Y81.060 E29.96896
G1 X107.792 Y81.282 E29.99750
G1 X108.111 Y81.546 E30.02604
G1 X108.395 Y81.848 E30.05458
G1 X108.638 Y82.183 E30.08312
G1 X108.838 Y82.546 E30.11166
G1 X108.990 Y82.932 E30.14020
G1 X109.093 Y83.333 E30.16873
G1 X109.145 Y83.744 E30.19727
G1 X109.145 Y84.158 E30.22581
G1 X109.093 Y84.569 E30.25435
G1 X108.990 Y84.971 E30.28289
G1 X108.838 Y85.356 E30.31143
G1 X108.638 Y85.719 E30.33997
G1 X108.395 Y86.054 E30.36851
G1 X108.111 Y86.356 E30.39704
G1 X107.649 Y86.738 E30.43832
G1 X107.649 Y85.838 E30.50032
G1 X107.620 Y85.606 E30.51644
G1 X107.483 Y85.184 E30.54700
G1 X107.241 Y84.803 E30.57811
G1 X106.917 Y84.499 E30.60868
G1 X106.713 Y84.369 E30.62534
G1 X106.308 Y84.209 E30.65535
G1 X106.070 Y84.163 E30.67202
G1 X105.626 Y84.163 E30.70258
G1 X105.189 Y84.276 E30.73369
G1 X104.800 Y84.489 E30.76425
G1 X104.614 Y84.644 E30.78092
G1 X104.331 Y84.986 E30.81148
G1 X104.138 Y85.394 E30.84259
G1 X104.055 Y85.830 E30.87315
G1 X104.055 Y86.738 E30.93570
G1 X103.594 Y86.356 E30.97698
G1 X103.310 Y86.054 E31.00551
G1 X103.066 Y85.719 E31.03405
G1 X102.867 Y85.356 E31.06259
G1 X102.714 Y84.971 E31.09113
G1 X102.611 Y84.569 E31.11967
G1 X102.559 Y84.158 E31.14821
G1 X102.559 Y83.744 E31.17675
G1 X102.611 Y83.333 E31.20529
G1 X102.714 Y82.932 E31.23382
G1 X102.867 Y82.546 E31.26236
G1 X103.066 Y82.183 E31.29090
G1 X103.310 Y81.848 E31.31944
G1 X103.594 Y81.546 E31.34798
G1 X103.913 Y81.282 E31.37652
G1 X104.263 Y81.060 E31.40506
G1 X104.638 Y80.883 E31.43360
G1 X105.102 Y80.732 E31.46724
G1 X105.102 Y24.326 E35.35221
G1 X105.103 Y23.751 F7800.000
G1 X105.852 Y23.554 F7800.000
G1 X105.852 Y81.223 E40.05984 F1200.000
G1 X106.047 Y81.824 F7800.000
G1 X104.803 Y83.068 E40.22627 F3600.000
G1 X105.748 Y82.927 E40.31667
G1 X106.654 Y82.021 E40.43783
G1 X107.163 Y82.316 E40.49346
G1 X106.479 Y83.000 E40.58494
G1 X107.069 Y83.214 E40.64434
G1 X107.556 Y82.727 E40.70942
G1 X107.823 Y83.265 E40.76616
G1 X107.583 Y83.504 E40.79814
G1 X104.781 Y82.285 F7800.000
G1 X104.194 Y82.872 E40.87662 F3600.000
G1 E39.87662 F1800.00000
G92 E0
G1 X105.118 Y23.015 F7800.000
G1 E1.00000 F1800.00000
G1 X105.366 Y22.767 E1.03024 F3600.000
G1 X105.366 Y22.034 E1.09334
G1 X104.386 Y23.014 E1.21275
G1 X103.654 Y23.014 E1.27581
G1 X105.366 Y21.302 E1.48439
G1 X105.366 Y20.569 E1.54749
G1 X102.922 Y23.013 E1.84524
G1 X102.190 Y23.013 E1.90830
G1 X105.366 Y19.837 E2.29522
G1 X105.366 Y19.104 E2.35832
G1 X101.458 Y23.012 E2.83441
G1 X101.339 Y22.399 E2.88826
G1 X105.250 Y18.488 E3.36469
G1 X104.517 Y18.488 E3.42779
G1 X101.339 Y21.666 E3.81498
G1 X101.339 Y20.933 E3.87808
G1 X103.785 Y18.488 E4.17604
G1 X103.052 Y18.488 E4.23914
G1 X101.339 Y20.201 E4.44785
G1 X101.339 Y19.468 E4.51095
G1 X102.320 Y18.488 E4.63043
G1 X101.587 Y18.488 E4.69353
G1 X101.339 Y18.736 E4.72377
G1 X100.800 Y23.249 F7800.000
G1 X91.853 Y23.251 E6.31232 F1200.000
G1 X91.565 Y23.306 E6.36427
G1 E5.36427 F1800.00000
G92 E0
G1 X91.809 Y11.012 F7800.000
G1 E1.00000 F1800.00000
G1 X91.915 Y10.997 E1.00870 F1200.000
G1 X105.843 Y11.010 E2.14570
G1 X105.852 Y17.949 E2.71214
G1 E1.71214 F1800.00000
G92 E0
G1 Z1.300 F7800.000
G1 X103.547 Y84.453 F7800.000
G1 E1.00000 F1800.00000
G1 X103.503 Y84.099 E1.02910 F1800.000
G1 X103.503 Y83.803 E1.05324
G1 X103.540 Y83.510 E1.07737
G1 X103.613 Y83.224 E1.10151
G1 X103.722 Y82.949 E1.12564
G1 X103.865 Y82.690 E1.14978
G1 X104.038 Y82.450 E1.17391
G1 X104.241 Y82.235 E1.19804
G1 X104.469 Y82.046 E1.22218
G1 X104.718 Y81.888 E1.24631
G1 X104.986 Y81.762 E1.27045
G1 X105.852 Y81.481 E1.34484
G1 X106.719 Y81.762 E1.41923
G1 X106.986 Y81.888 E1.44336
G1 X107.236 Y82.046 E1.46749
G1 X107.464 Y82.235 E1.49163
G1 X107.666 Y82.450 E1.51576
G1 X107.840 Y82.690 E1.53989
G1 X107.982 Y82.949 E1.56403
G1 X108.091 Y83.224 E1.58817
G1 X108.165 Y83.510 E1.61230
G1 X108.202 Y83.803 E1.63644
G1 X108.202 Y84.411 E1.68604
G1 X107.470 Y83.724 E1.76796
G1 X106.899 Y83.410 E1.82121
G1 X106.535 Y83.292 E1.85243
G1 X106.159 Y83.220 E1.88365
G1 X105.507 Y83.220 E1.93689
G1 X104.839 Y83.392 E1.99322
G1 X104.267 Y83.706 E2.04646
G1 X103.944 Y83.974 E2.08077
G1 X103.595 Y84.395 E2.12539
