; generated by Slic3r 1.3.1-dev on 2018-10-26 at 10:58:49

; external perimeters extrusion width = 0.55mm (3.90mm^3/s)
; perimeters extrusion width = 0.58mm (5.89mm^3/s)
; infill extrusion width = 0.58mm (11.78mm^3/s)
; solid infill extrusion width = 0.58mm (11.78mm^3/s)
; top infill extrusion width = 0.58mm (9.82mm^3/s)
; support material extrusion width = 0.55mm (11.14mm^3/s)

;M104 S200  ; set temperature
M501
G28                  ; home all axes
G1 Z5 F5000 ; lift nozzle
;;M190 S65    ; set bed temperature
; Filament gcode

G21 ; set units to millimeters
G90 ; use absolute coordinates
M82 ; use absolute distances for extrusion
G92 E0
G92 E0
G1 E-1.00000 F1800.00000
G92 E0
G1 Z31.975 F7800.000
G1 X100.098 Y99.254 F7800.000
G1 E1.00000 F1800.00000
G1 F1800
G1 X100.247 Y99.288 E1.01246
G1 X100.404 Y99.363 E1.02669
G1 X100.610 Y99.557 E1.04976
G1 X100.730 Y99.812 E1.07284
G1 X100.748 Y100.095 E1.09591
G1 X100.661 Y100.363 E1.11898
G1 X100.481 Y100.581 E1.14205
G1 X100.233 Y100.717 E1.16512
G1 X99.953 Y100.753 E1.18819
G1 X99.679 Y100.682 E1.21127
G1 X99.450 Y100.516 E1.23434
G1 X99.299 Y100.278 E1.25741
G1 X99.246 Y100.000 E1.28048
G1 X99.299 Y99.722 E1.30355
G1 X99.450 Y99.484 E1.32663
G1 X99.679 Y99.318 E1.34969
G1 X99.859 Y99.259 E1.36513
G1 X100.023 Y99.247 E1.37861
G1 X100.209 Y98.776 F7800.000
G1 F1800
G1 X100.393 Y98.818 E1.39407
G1 X100.668 Y98.948 E1.41884
G1 X100.794 Y99.040 E1.43161
G1 X101.008 Y99.268 E1.45711
G1 X101.092 Y99.400 E1.46988
G1 X101.207 Y99.690 E1.49538
G1 X101.246 Y100.000 E1.52088
G1 X101.236 Y100.156 E1.53365
G1 X101.207 Y100.310 E1.54642
G1 X101.092 Y100.600 E1.57192
G1 X100.908 Y100.853 E1.59742
G1 X100.794 Y100.960 E1.61019
G1 X100.531 Y101.127 E1.63568
G1 X100.281 Y101.212 E1.65715
G1 X100.069 Y101.244 E1.67466
G1 X99.767 Y101.224 E1.69943
G1 X99.615 Y101.185 E1.71220
G1 X99.332 Y101.052 E1.73770
G1 X99.206 Y100.960 E1.75047
G1 X98.992 Y100.732 E1.77597
G1 X98.908 Y100.600 E1.78874
G1 X98.793 Y100.310 E1.81424
G1 X98.764 Y100.156 E1.82701
G1 X98.764 Y99.844 E1.85251
G1 X98.793 Y99.690 E1.86528
G1 X98.908 Y99.400 E1.89078
G1 X99.092 Y99.147 E1.91627
G1 X99.206 Y99.040 E1.92905
G1 X99.332 Y98.948 E1.94182
G1 X99.615 Y98.815 E1.96732
G1 X99.922 Y98.756 E1.99281
G1 X100.135 Y98.764 E2.01022
G1 X100.317 Y98.310 F7800.000
G1 F1800
G1 X100.536 Y98.361 E2.02760
G1 X100.734 Y98.440 E2.04406
G1 X100.924 Y98.544 E2.06078
G1 X101.099 Y98.671 E2.07749
G1 X101.257 Y98.820 E2.09421
G1 X101.395 Y98.986 E2.11093
G1 X101.511 Y99.169 E2.12764
G1 X101.603 Y99.365 E2.14436
G1 X101.670 Y99.571 E2.16107
G1 X101.711 Y99.784 E2.17779
G1 X101.724 Y100.000 E2.19451
G1 X101.711 Y100.216 E2.21122
G1 X101.670 Y100.429 E2.22794
G1 X101.603 Y100.635 E2.24465
G1 X101.511 Y100.831 E2.26137
G1 X101.395 Y101.014 E2.27809
G1 X101.257 Y101.180 E2.29480
G1 X101.099 Y101.329 E2.31152
G1 X100.924 Y101.456 E2.32824
G1 X100.734 Y101.560 E2.34495
G1 X100.377 Y101.680 E2.37407
G1 X100.105 Y101.721 E2.39527
G1 X99.892 Y101.721 E2.41173
G1 X99.677 Y101.694 E2.42845
G1 X99.467 Y101.640 E2.44516
G1 X99.266 Y101.560 E2.46188
G1 X99.076 Y101.456 E2.47859
G1 X98.901 Y101.329 E2.49531
G1 X98.743 Y101.180 E2.51203
G1 X98.605 Y101.014 E2.52874
G1 X98.489 Y100.831 E2.54546
G1 X98.397 Y100.635 E2.56218
G1 X98.330 Y100.429 E2.57889
G1 X98.289 Y100.216 E2.59561
G1 X98.276 Y100.000 E2.61232
G1 X98.289 Y99.784 E2.62904
G1 X98.330 Y99.571 E2.64576
G1 X98.397 Y99.365 E2.66247
G1 X98.489 Y99.169 E2.67919
G1 X98.605 Y98.986 E2.69591
G1 X98.743 Y98.820 E2.71262
G1 X98.901 Y98.671 E2.72934
G1 X99.076 Y98.544 E2.74605
G1 X99.266 Y98.440 E2.76277
G1 X99.467 Y98.360 E2.77949
G1 X99.677 Y98.306 E2.79620
G1 X99.892 Y98.279 E2.81292
G1 X100.243 Y98.296 E2.84007
G1 X100.393 Y98.522 F7800.000
G1 X99.890 Y99.752 F7800.000
G1 F3600
G1 X99.785 Y99.857 E2.85263
G1 X100.100 Y100.261 F7800.000
G1 F3600
G1 X100.204 Y100.156 E2.86507
G1 E1.86507 F1800.00000
G92 E0
G1 Z32.375 F7800.000
G1 X100.100 Y99.254 F7800.000
G1 E1.00000 F1800.00000
G1 F1800
G1 X100.246 Y99.288 E1.01226
G1 X100.404 Y99.363 E1.02653
G1 X100.610 Y99.557 E1.04960
G1 X100.730 Y99.812 E1.07267
G1 X100.748 Y100.095 E1.09575
G1 X100.661 Y100.363 E1.11882
G1 X100.481 Y100.581 E1.14189
G1 X100.233 Y100.717 E1.16496
G1 X99.953 Y100.753 E1.18803
G1 X99.679 Y100.682 E1.21111
G1 X99.450 Y100.516 E1.23417
G1 X99.299 Y100.278 E1.25725
G1 X99.246 Y100.000 E1.28032
G1 X99.299 Y99.722 E1.30339
G1 X99.450 Y99.484 E1.32646
G1 X99.679 Y99.318 E1.34953
G1 X99.859 Y99.259 E1.36497
G1 X100.025 Y99.247 E1.37861
G1 X100.162 Y98.767 F7800.000
G1 F1800
G1 X100.393 Y98.818 E1.39797
G1 X100.668 Y98.948 E1.42276
G1 X100.794 Y99.040 E1.43553
G1 X101.008 Y99.268 E1.46103
G1 X101.092 Y99.400 E1.47381
G1 X101.207 Y99.690 E1.49930
G1 X101.246 Y100.000 E1.52480
G1 X101.236 Y100.156 E1.53757
G1 X101.207 Y100.310 E1.55034
G1 X101.092 Y100.600 E1.57584
G1 X101.008 Y100.732 E1.58861
G1 X100.794 Y100.960 E1.61411
G1 X100.668 Y101.052 E1.62688
G1 X100.385 Y101.185 E1.65238
G1 X100.078 Y101.244 E1.67788
G1 X99.922 Y101.244 E1.69065
G1 X99.615 Y101.185 E1.71615
G1 X99.469 Y101.127 E1.72892
G1 X99.206 Y100.960 E1.75441
G1 X99.092 Y100.853 E1.76719
G1 X98.908 Y100.600 E1.79268
G1 X98.796 Y100.318 E1.81748
G1 X98.761 Y100.109 E1.83478
G1 X98.764 Y99.844 E1.85643
G1 X98.793 Y99.690 E1.86920
G1 X98.908 Y99.400 E1.89470
G1 X99.092 Y99.147 E1.92020
G1 X99.206 Y99.040 E1.93297
G1 X99.332 Y98.948 E1.94574
G1 X99.615 Y98.815 E1.97124
G1 X99.922 Y98.756 E1.99673
G1 X100.087 Y98.758 E2.01023
G1 X100.221 Y98.293 F7800.000
G1 F1800
G1 X100.536 Y98.361 E2.03506
G1 X100.734 Y98.440 E2.05154
G1 X100.924 Y98.544 E2.06825
G1 X101.099 Y98.671 E2.08497
G1 X101.257 Y98.820 E2.10169
G1 X101.395 Y98.986 E2.11840
G1 X101.511 Y99.169 E2.13512
G1 X101.603 Y99.365 E2.15183
G1 X101.670 Y99.571 E2.16855
G1 X101.711 Y99.784 E2.18527
G1 X101.724 Y100.000 E2.20198
G1 X101.711 Y100.216 E2.21870
G1 X101.670 Y100.429 E2.23541
G1 X101.603 Y100.635 E2.25213
G1 X101.511 Y100.831 E2.26885
G1 X101.395 Y101.014 E2.28556
G1 X101.257 Y101.180 E2.30228
G1 X101.099 Y101.329 E2.31900
G1 X100.924 Y101.456 E2.33571
G1 X100.734 Y101.560 E2.35243
G1 X100.533 Y101.640 E2.36914
G1 X100.323 Y101.694 E2.38586
G1 X100.108 Y101.721 E2.40258
G1 X99.892 Y101.721 E2.41929
G1 X99.677 Y101.694 E2.43601
G1 X99.467 Y101.640 E2.45273
G1 X99.266 Y101.560 E2.46944
G1 X99.076 Y101.456 E2.48616
G1 X98.901 Y101.329 E2.50287
G1 X98.743 Y101.180 E2.51959
G1 X98.605 Y101.014 E2.53631
G1 X98.489 Y100.831 E2.55302
G1 X98.397 Y100.635 E2.56974
G1 X98.331 Y100.432 E2.58621
G1 X98.286 Y100.164 E2.60721
G1 X98.289 Y99.784 E2.63652
G1 X98.330 Y99.571 E2.65323
G1 X98.397 Y99.365 E2.66995
G1 X98.489 Y99.169 E2.68667
G1 X98.605 Y98.986 E2.70338
G1 X98.743 Y98.820 E2.72010
G1 X98.901 Y98.671 E2.73681
G1 X99.076 Y98.544 E2.75353
G1 X99.266 Y98.440 E2.77025
G1 X99.467 Y98.360 E2.78696
G1 X99.677 Y98.306 E2.80368
G1 X99.892 Y98.279 E2.82040
G1 X100.147 Y98.284 E2.84010
G1 X100.242 Y98.339 F7800.000
G1 X100.154 Y99.799 F7800.000
G1 F3600
G1 X100.258 Y99.903 E2.85241
G1 X99.847 Y100.203 F7800.000
G1 F3600
G1 X99.741 Y100.096 E2.86500
G1 E1.86500 F1800.00000
G92 E0
G1 Z32.775 F7800.000
G1 X100.102 Y99.254 F7800.000
G1 E1.00000 F1800.00000
G1 F1800
G1 X100.246 Y99.288 E1.01206
G1 X100.404 Y99.363 E1.02637
G1 X100.610 Y99.557 E1.04944
G1 X100.730 Y99.812 E1.07251
G1 X100.748 Y100.095 E1.09559
G1 X100.661 Y100.363 E1.11866
G1 X100.481 Y100.581 E1.14173
G1 X100.233 Y100.717 E1.16480
G1 X99.953 Y100.753 E1.18787
G1 X99.679 Y100.682 E1.21094
G1 X99.450 Y100.516 E1.23401
G1 X99.299 Y100.278 E1.25709
G1 X99.246 Y100.000 E1.28016
G1 X99.299 Y99.722 E1.30323
G1 X99.450 Y99.484 E1.32630
G1 X99.679 Y99.318 E1.34937
G1 X99.859 Y99.259 E1.36480
G1 X100.027 Y99.247 E1.37861
G1 X100.163 Y98.767 F7800.000
G1 F1800
G1 X100.393 Y98.818 E1.39778
G1 X100.668 Y98.948 E1.42260
G1 X100.794 Y99.040 E1.43537
G1 X101.008 Y99.268 E1.46087
G1 X101.092 Y99.400 E1.47365
G1 X101.207 Y99.690 E1.49914
G1 X101.246 Y100.000 E1.52464
G1 X101.236 Y100.156 E1.53741
G1 X101.207 Y100.310 E1.55018
G1 X101.092 Y100.600 E1.57568
G1 X100.908 Y100.853 E1.60118
G1 X100.794 Y100.960 E1.61395
G1 X100.668 Y101.052 E1.62672
G1 X100.385 Y101.185 E1.65222
G1 X100.078 Y101.244 E1.67772
G1 X99.922 Y101.244 E1.69049
G1 X99.767 Y101.224 E1.70326
G1 X99.469 Y101.127 E1.72876
G1 X99.206 Y100.960 E1.75425
G1 X99.092 Y100.853 E1.76703
G1 X98.997 Y100.739 E1.77912
G1 X98.889 Y100.559 E1.79622
G1 X98.796 Y100.318 E1.81737
G1 X98.761 Y100.111 E1.83447
G1 X98.764 Y99.844 E1.85630
G1 X98.793 Y99.690 E1.86907
G1 X98.908 Y99.400 E1.89457
G1 X99.092 Y99.147 E1.92006
G1 X99.206 Y99.040 E1.93284
G1 X99.332 Y98.948 E1.94561
G1 X99.615 Y98.815 E1.97111
G1 X99.922 Y98.756 E1.99660
G1 X100.089 Y98.758 E2.01026
G1 X100.223 Y98.293 F7800.000
G1 F1800
G1 X100.536 Y98.361 E2.03493
G1 X100.734 Y98.440 E2.05141
G1 X100.924 Y98.544 E2.06813
G1 X101.099 Y98.671 E2.08485
G1 X101.257 Y98.820 E2.10156
G1 X101.395 Y98.986 E2.11828
G1 X101.511 Y99.169 E2.13499
G1 X101.603 Y99.365 E2.15171
G1 X101.670 Y99.571 E2.16843
G1 X101.711 Y99.784 E2.18514
G1 X101.724 Y100.000 E2.20186
G1 X101.711 Y100.216 E2.21858
G1 X101.670 Y100.429 E2.23529
G1 X101.603 Y100.635 E2.25201
G1 X101.511 Y100.831 E2.26872
G1 X101.395 Y101.014 E2.28544
G1 X101.257 Y101.180 E2.30216
G1 X101.099 Y101.329 E2.31887
G1 X100.924 Y101.456 E2.33559
G1 X100.734 Y101.560 E2.35230
G1 X100.533 Y101.640 E2.36902
G1 X100.323 Y101.694 E2.38574
G1 X100.108 Y101.721 E2.40245
G1 X99.892 Y101.721 E2.41917
G1 X99.677 Y101.694 E2.43589
G1 X99.467 Y101.640 E2.45260
G1 X99.266 Y101.560 E2.46932
G1 X99.076 Y101.456 E2.48603
G1 X98.901 Y101.329 E2.50275
G1 X98.743 Y101.180 E2.51947
G1 X98.607 Y101.016 E2.53595
G1 X98.467 Y100.785 E2.55676
G1 X98.331 Y100.432 E2.58601
G1 X98.286 Y100.166 E2.60682
G1 X98.289 Y99.784 E2.63631
G1 X98.330 Y99.571 E2.65303
G1 X98.397 Y99.365 E2.66974
G1 X98.489 Y99.169 E2.68646
G1 X98.605 Y98.986 E2.70318
G1 X98.743 Y98.820 E2.71989
G1 X98.901 Y98.671 E2.73661
G1 X99.076 Y98.544 E2.75332
G1 X99.266 Y98.440 E2.77004
G1 X99.467 Y98.360 E2.78676
G1 X99.677 Y98.306 E2.80347
G1 X99.892 Y98.279 E2.82019
G1 X100.149 Y98.284 E2.84005
G1 X100.244 Y98.339 F7800.000
G1 X99.890 Y99.752 F7800.000
G1 F3600
G1 X99.785 Y99.857 E2.85257
G1 X100.110 Y100.248 F7800.000
G1 F3600
G1 X100.214 Y100.144 E2.86497
G1 E1.86497 F1800.00000
G92 E0
G1 Z33.175 F7800.000
G1 X100.104 Y99.254 F7800.000
G1 E1.00000 F1800.00000
G1 F1800
G1 X100.245 Y99.288 E1.01185
G1 X100.404 Y99.363 E1.02621
G1 X100.610 Y99.557 E1.04928
G1 X100.730 Y99.812 E1.07235
G1 X100.748 Y100.095 E1.09543
G1 X100.661 Y100.363 E1.11850
G1 X100.481 Y100.581 E1.14157
G1 X100.233 Y100.717 E1.16464
G1 X99.953 Y100.753 E1.18771
G1 X99.679 Y100.682 E1.21079
G1 X99.450 Y100.516 E1.23385
G1 X99.299 Y100.278 E1.25693
G1 X99.246 Y100.000 E1.28000
G1 X99.299 Y99.722 E1.30307
G1 X99.450 Y99.484 E1.32614
G1 X99.679 Y99.318 E1.34921
G1 X99.859 Y99.259 E1.36464
G1 X100.029 Y99.247 E1.37861
G1 X100.216 Y98.777 F7800.000
G1 F1800
G1 X100.392 Y98.818 E1.39341
G1 X100.668 Y98.948 E1.41826
G1 X100.794 Y99.040 E1.43103
G1 X101.008 Y99.268 E1.45653
G1 X101.092 Y99.400 E1.46930
G1 X101.207 Y99.690 E1.49480
G1 X101.246 Y100.000 E1.52030
G1 X101.236 Y100.156 E1.53307
G1 X101.207 Y100.310 E1.54584
G1 X101.092 Y100.600 E1.57134
G1 X100.908 Y100.853 E1.59684
G1 X100.794 Y100.960 E1.60961
G1 X100.531 Y101.127 E1.63510
G1 X100.233 Y101.224 E1.66060
G1 X100.078 Y101.244 E1.67337
G1 X99.767 Y101.224 E1.69887
G1 X99.615 Y101.185 E1.71164
G1 X99.332 Y101.052 E1.73714
G1 X99.206 Y100.960 E1.74991
G1 X98.992 Y100.732 E1.77541
G1 X98.908 Y100.600 E1.78818
G1 X98.796 Y100.317 E1.81303
G1 X98.761 Y100.113 E1.82992
G1 X98.764 Y99.844 E1.85193
G1 X98.793 Y99.690 E1.86470
G1 X98.908 Y99.400 E1.89020
G1 X98.992 Y99.268 E1.90297
G1 X99.206 Y99.040 E1.92847
G1 X99.332 Y98.948 E1.94124
G1 X99.615 Y98.815 E1.96674
G1 X99.922 Y98.756 E1.99223
G1 X100.142 Y98.765 E2.01022
G1 X100.325 Y98.312 F7800.000
G1 F1800
G1 X100.536 Y98.361 E2.02693
G1 X100.734 Y98.440 E2.04342
G1 X100.924 Y98.544 E2.06014
G1 X101.099 Y98.671 E2.07685
G1 X101.257 Y98.820 E2.09357
G1 X101.395 Y98.986 E2.11028
G1 X101.511 Y99.169 E2.12700
G1 X101.603 Y99.365 E2.14372
G1 X101.670 Y99.571 E2.16043
G1 X101.711 Y99.784 E2.17715
G1 X101.724 Y100.000 E2.19387
G1 X101.711 Y100.216 E2.21058
G1 X101.670 Y100.429 E2.22730
G1 X101.603 Y100.635 E2.24401
G1 X101.511 Y100.831 E2.26073
G1 X101.395 Y101.014 E2.27745
G1 X101.257 Y101.180 E2.29416
G1 X101.099 Y101.329 E2.31088
G1 X100.924 Y101.456 E2.32760
G1 X100.734 Y101.560 E2.34431
G1 X100.533 Y101.640 E2.36103
G1 X100.323 Y101.694 E2.37774
G1 X100.108 Y101.721 E2.39446
G1 X99.892 Y101.721 E2.41118
G1 X99.677 Y101.694 E2.42789
G1 X99.467 Y101.640 E2.44461
G1 X99.266 Y101.560 E2.46132
G1 X99.076 Y101.456 E2.47804
G1 X98.901 Y101.329 E2.49476
G1 X98.743 Y101.180 E2.51147
G1 X98.605 Y101.014 E2.52819
G1 X98.489 Y100.831 E2.54491
G1 X98.397 Y100.635 E2.56162
G1 X98.331 Y100.432 E2.57811
G1 X98.286 Y100.168 E2.59873
G1 X98.289 Y99.784 E2.62840
G1 X98.330 Y99.571 E2.64512
G1 X98.397 Y99.365 E2.66183
G1 X98.489 Y99.169 E2.67855
G1 X98.605 Y98.986 E2.69527
G1 X98.743 Y98.820 E2.71198
G1 X98.901 Y98.671 E2.72870
G1 X99.076 Y98.544 E2.74542
G1 X99.266 Y98.440 E2.76213
G1 X99.467 Y98.360 E2.77885
G1 X99.677 Y98.306 E2.79556
G1 X99.892 Y98.279 E2.81228
G1 X100.251 Y98.297 E2.84008
G1 X100.398 Y98.515 F7800.000
G1 X100.154 Y99.799 F7800.000
G1 F3600
G1 X100.258 Y99.903 E2.85238
G1 X99.847 Y100.203 F7800.000
G1 F3600
G1 X99.741 Y100.096 E2.86498
G1 E1.86498 F1800.00000
G92 E0
G1 Z33.575 F7800.000
G1 X100.106 Y99.255 F7800.000
G1 E1.00000 F1800.00000
G1 F1800
G1 X100.245 Y99.287 E1.01165
G1 X100.404 Y99.363 E1.02605
G1 X100.610 Y99.557 E1.04912
G1 X100.730 Y99.812 E1.07219
G1 X100.748 Y100.095 E1.09527
G1 X100.661 Y100.363 E1.11834
G1 X100.481 Y100.581 E1.14141
G1 X100.233 Y100.717 E1.16448
G1 X99.953 Y100.753 E1.18755
G1 X99.679 Y100.682 E1.21063
G1 X99.450 Y100.516 E1.23369
G1 X99.299 Y100.278 E1.25677
G1 X99.246 Y100.000 E1.27984
G1 X99.299 Y99.722 E1.30291
G1 X99.450 Y99.484 E1.32598
G1 X99.679 Y99.318 E1.34905
G1 X99.859 Y99.259 E1.36449
G1 X100.031 Y99.247 E1.37861
G1 X100.218 Y98.777 F7800.000
G1 F1800
G1 X100.392 Y98.818 E1.39319
G1 X100.668 Y98.948 E1.41807
G1 X100.794 Y99.040 E1.43084
G1 X101.008 Y99.268 E1.45634
G1 X101.092 Y99.400 E1.46911
G1 X101.207 Y99.690 E1.49460
G1 X101.246 Y100.000 E1.52010
G1 X101.236 Y100.156 E1.53288
G1 X101.207 Y100.310 E1.54565
G1 X101.092 Y100.600 E1.57114
G1 X100.908 Y100.853 E1.59664
G1 X100.794 Y100.960 E1.60941
G1 X100.531 Y101.127 E1.63491
G1 X100.273 Y101.214 E1.65709
G1 X100.071 Y101.244 E1.67378
G1 X99.767 Y101.224 E1.69866
G1 X99.615 Y101.185 E1.71143
G1 X99.332 Y101.052 E1.73693
G1 X99.206 Y100.960 E1.74970
G1 X98.992 Y100.732 E1.77520
G1 X98.908 Y100.600 E1.78797
G1 X98.793 Y100.310 E1.81347
G1 X98.764 Y100.156 E1.82624
G1 X98.764 Y99.844 E1.85174
G1 X98.793 Y99.690 E1.86451
G1 X98.908 Y99.400 E1.89000
G1 X99.092 Y99.147 E1.91550
G1 X99.206 Y99.040 E1.92827
G1 X99.469 Y98.873 E1.95377
G1 X99.615 Y98.815 E1.96654
G1 X99.922 Y98.756 E1.99204
G1 X100.144 Y98.765 E2.01023
G1 X100.328 Y98.312 F7800.000
G1 F1800
G1 X100.535 Y98.361 E2.02671
G1 X100.734 Y98.440 E2.04321
G1 X100.924 Y98.544 E2.05992
G1 X101.099 Y98.671 E2.07664
G1 X101.257 Y98.820 E2.09335
G1 X101.395 Y98.986 E2.11007
G1 X101.511 Y99.169 E2.12679
G1 X101.603 Y99.365 E2.14350
G1 X101.670 Y99.571 E2.16022
G1 X101.711 Y99.784 E2.17693
G1 X101.724 Y100.000 E2.19365
G1 X101.711 Y100.216 E2.21037
G1 X101.670 Y100.429 E2.22708
G1 X101.603 Y100.635 E2.24380
G1 X101.511 Y100.831 E2.26052
G1 X101.395 Y101.014 E2.27723
G1 X101.257 Y101.180 E2.29395
G1 X101.099 Y101.329 E2.31066
G1 X100.924 Y101.456 E2.32738
G1 X100.734 Y101.560 E2.34410
G1 X100.367 Y101.683 E2.37395
G1 X100.105 Y101.721 E2.39438
G1 X99.892 Y101.721 E2.41088
G1 X99.677 Y101.694 E2.42759
G1 X99.467 Y101.640 E2.44431
G1 X99.266 Y101.560 E2.46103
G1 X99.076 Y101.456 E2.47774
G1 X98.901 Y101.329 E2.49446
G1 X98.743 Y101.180 E2.51117
G1 X98.605 Y101.014 E2.52789
