; generated by Slic3r 1.3.1-dev on 2018-10-26 at 10:58:49

; external perimeters extrusion width = 0.55mm (3.90mm^3/s)
; perimeters extrusion width = 0.58mm (5.89mm^3/s)
; infill extrusion width = 0.58mm (11.78mm^3/s)
; solid infill extrusion width = 0.58mm (11.78mm^3/s)
; top infill extrusion width = 0.58mm (9.82mm^3/s)
; support material extrusion width = 0.55mm (11.14mm^3/s)

;M104 S200  ; set temperature
G28                  ; home all axes
G29                  ;Calibration par palpation de 4 points
M500               ;Sauvegarde de la calibration
G1 Z5 F5000 ; lift nozzle
;;M190 S65    ; set bed temperature
; Filament gcode

G21 ; set units to millimeters
G90 ; use absolute coordinates
M82 ; use absolute distances for extrusion
G92 E0
G92 E0
G1 E-1.00000 F1800.00000
G92 E0
G1 Z11.175 F7800.000
G1 X100.094 Y99.253 F7800.000
G1 E1.00000 F1800.00000
G1 F1800
G1 X100.233 Y99.283 E1.01164
G1 X100.404 Y99.363 E1.02707
G1 X100.610 Y99.557 E1.05014
G1 X100.730 Y99.812 E1.07321
G1 X100.751 Y99.953 E1.08485
G1 X100.745 Y100.110 E1.09762
G1 X100.661 Y100.363 E1.11943
G1 X100.492 Y100.570 E1.14124
G1 X100.363 Y100.659 E1.15401
G1 X100.233 Y100.717 E1.16565
G1 X99.953 Y100.753 E1.18872
G1 X99.767 Y100.717 E1.20415
G1 X99.596 Y100.637 E1.21959
G1 X99.390 Y100.443 E1.24266
G1 X99.270 Y100.188 E1.26573
G1 X99.249 Y100.047 E1.27736
G1 X99.255 Y99.890 E1.29013
G1 X99.339 Y99.637 E1.31195
G1 X99.519 Y99.419 E1.33502
G1 X99.767 Y99.283 E1.35809
G1 X100.019 Y99.251 E1.37880
G1 X100.106 Y98.762 F7800.000
G1 F1800
G1 X100.385 Y98.815 E1.40199
G1 X100.668 Y98.948 E1.42748
G1 X100.794 Y99.040 E1.44026
G1 X101.008 Y99.268 E1.46575
G1 X101.092 Y99.400 E1.47853
G1 X101.207 Y99.690 E1.50402
G1 X101.243 Y99.947 E1.52522
G1 X101.234 Y100.165 E1.54304
G1 X101.159 Y100.459 E1.56776
G1 X101.092 Y100.600 E1.58054
G1 X101.008 Y100.732 E1.59331
G1 X100.801 Y100.954 E1.61804
G1 X100.621 Y101.077 E1.63585
G1 X100.385 Y101.185 E1.65706
G1 X100.078 Y101.244 E1.68255
G1 X99.922 Y101.244 E1.69532
G1 X99.615 Y101.185 E1.72082
G1 X99.332 Y101.052 E1.74632
G1 X99.206 Y100.960 E1.75909
G1 X98.992 Y100.732 E1.78459
G1 X98.908 Y100.600 E1.79736
G1 X98.793 Y100.310 E1.82286
G1 X98.757 Y100.053 E1.84406
G1 X98.766 Y99.835 E1.86187
G1 X98.841 Y99.541 E1.88660
G1 X98.908 Y99.400 E1.89937
G1 X98.992 Y99.268 E1.91215
G1 X99.206 Y99.040 E1.93764
G1 X99.332 Y98.948 E1.95042
G1 X99.615 Y98.815 E1.97591
G1 X99.767 Y98.776 E1.98868
G1 X100.031 Y98.761 E2.01030
G1 X100.118 Y98.285 F7800.000
G1 F1800
G1 X100.323 Y98.306 E2.02624
G1 X100.533 Y98.360 E2.04295
G1 X100.734 Y98.440 E2.05967
G1 X100.924 Y98.544 E2.07639
G1 X101.099 Y98.671 E2.09310
G1 X101.257 Y98.820 E2.10982
G1 X101.395 Y98.986 E2.12654
G1 X101.511 Y99.169 E2.14325
G1 X101.603 Y99.365 E2.15997
G1 X101.670 Y99.571 E2.17668
G1 X101.721 Y99.941 E2.20553
G1 X101.710 Y100.220 E2.22701
G1 X101.670 Y100.429 E2.24346
G1 X101.603 Y100.635 E2.26018
G1 X101.511 Y100.831 E2.27689
G1 X101.395 Y101.014 E2.29361
G1 X101.257 Y101.180 E2.31033
G1 X101.102 Y101.326 E2.32678
G1 X100.873 Y101.484 E2.34826
G1 X100.533 Y101.640 E2.37710
G1 X100.323 Y101.694 E2.39382
G1 X100.108 Y101.721 E2.41054
G1 X99.892 Y101.721 E2.42725
G1 X99.677 Y101.694 E2.44397
G1 X99.467 Y101.640 E2.46069
G1 X99.266 Y101.560 E2.47740
G1 X99.076 Y101.456 E2.49412
G1 X98.901 Y101.329 E2.51083
G1 X98.743 Y101.180 E2.52755
G1 X98.605 Y101.014 E2.54427
G1 X98.489 Y100.831 E2.56098
G1 X98.397 Y100.635 E2.57770
G1 X98.330 Y100.429 E2.59441
G1 X98.279 Y100.059 E2.62326
G1 X98.290 Y99.780 E2.64474
G1 X98.330 Y99.571 E2.66119
G1 X98.397 Y99.365 E2.67791
G1 X98.489 Y99.169 E2.69462
G1 X98.605 Y98.986 E2.71134
G1 X98.743 Y98.820 E2.72806
G1 X98.901 Y98.671 E2.74477
G1 X99.076 Y98.544 E2.76149
G1 X99.266 Y98.440 E2.77821
G1 X99.467 Y98.360 E2.79492
G1 X99.677 Y98.306 E2.81164
G1 X99.888 Y98.279 E2.82809
G1 X100.043 Y98.283 E2.84001
G1 X100.142 Y98.327 F7800.000
G1 X99.890 Y99.752 F7800.000
G1 F3600
G1 X99.785 Y99.857 E2.85260
G1 X100.103 Y100.258 F7800.000
G1 F3600
G1 X100.207 Y100.154 E2.86506
G1 E1.86506 F1800.00000
G92 E0
G1 Z11.575 F7800.000
G1 X100.096 Y99.253 F7800.000
G1 E1.00000 F1800.00000
G1 F1800
G1 X100.233 Y99.283 E1.01147
G1 X100.404 Y99.363 E1.02690
G1 X100.610 Y99.557 E1.04997
G1 X100.730 Y99.812 E1.07305
G1 X100.748 Y100.095 E1.09612
G1 X100.661 Y100.363 E1.11919
G1 X100.481 Y100.581 E1.14226
G1 X100.233 Y100.717 E1.16533
G1 X99.953 Y100.753 E1.18840
G1 X99.767 Y100.717 E1.20384
G1 X99.596 Y100.637 E1.21927
G1 X99.390 Y100.443 E1.24234
G1 X99.270 Y100.188 E1.26541
G1 X99.249 Y100.049 E1.27688
G1 X99.255 Y99.890 E1.28986
G1 X99.339 Y99.637 E1.31163
G1 X99.519 Y99.419 E1.33470
G1 X99.767 Y99.283 E1.35777
G1 X100.021 Y99.252 E1.37864
G1 X100.108 Y98.763 F7800.000
G1 F1800
G1 X100.385 Y98.815 E1.40164
G1 X100.668 Y98.948 E1.42713
G1 X100.794 Y99.040 E1.43990
G1 X101.008 Y99.268 E1.46540
G1 X101.092 Y99.400 E1.47817
G1 X101.207 Y99.690 E1.50367
G1 X101.246 Y100.000 E1.52917
G1 X101.236 Y100.156 E1.54194
G1 X101.207 Y100.310 E1.55471
G1 X101.092 Y100.600 E1.58021
G1 X100.908 Y100.853 E1.60571
G1 X100.794 Y100.960 E1.61848
G1 X100.531 Y101.127 E1.64397
G1 X100.385 Y101.185 E1.65675
G1 X100.233 Y101.224 E1.66952
G1 X99.922 Y101.244 E1.69502
G1 X99.615 Y101.185 E1.72051
G1 X99.332 Y101.052 E1.74601
G1 X99.206 Y100.960 E1.75878
G1 X98.992 Y100.732 E1.78428
G1 X98.908 Y100.600 E1.79705
G1 X98.793 Y100.310 E1.82255
G1 X98.757 Y100.055 E1.84357
G1 X98.766 Y99.834 E1.86159
G1 X98.841 Y99.541 E1.88629
G1 X98.908 Y99.400 E1.89907
G1 X98.992 Y99.268 E1.91184
G1 X99.206 Y99.040 E1.93734
G1 X99.332 Y98.948 E1.95011
G1 X99.615 Y98.815 E1.97560
G1 X99.767 Y98.776 E1.98838
G1 X100.033 Y98.761 E2.01019
G1 X100.120 Y98.285 F7800.000
G1 F1800
G1 X100.323 Y98.306 E2.02591
G1 X100.533 Y98.360 E2.04263
G1 X100.734 Y98.440 E2.05934
G1 X100.924 Y98.544 E2.07606
G1 X101.099 Y98.671 E2.09278
G1 X101.257 Y98.820 E2.10949
G1 X101.395 Y98.986 E2.12621
G1 X101.511 Y99.169 E2.14292
G1 X101.603 Y99.365 E2.15964
G1 X101.670 Y99.571 E2.17636
G1 X101.711 Y99.784 E2.19307
G1 X101.724 Y100.000 E2.20979
G1 X101.711 Y100.216 E2.22650
G1 X101.670 Y100.429 E2.24322
G1 X101.603 Y100.635 E2.25994
G1 X101.511 Y100.831 E2.27665
G1 X101.395 Y101.014 E2.29337
G1 X101.257 Y101.180 E2.31009
G1 X101.099 Y101.329 E2.32680
G1 X100.924 Y101.456 E2.34352
G1 X100.734 Y101.560 E2.36023
G1 X100.533 Y101.640 E2.37695
G1 X100.323 Y101.694 E2.39367
G1 X100.108 Y101.721 E2.41038
G1 X99.892 Y101.721 E2.42710
G1 X99.677 Y101.694 E2.44381
G1 X99.467 Y101.640 E2.46053
G1 X99.266 Y101.560 E2.47725
G1 X99.076 Y101.456 E2.49396
G1 X98.901 Y101.329 E2.51068
G1 X98.743 Y101.180 E2.52740
G1 X98.605 Y101.014 E2.54411
G1 X98.489 Y100.831 E2.56083
G1 X98.397 Y100.635 E2.57754
G1 X98.330 Y100.429 E2.59426
G1 X98.279 Y100.061 E2.62292
G1 X98.290 Y99.780 E2.64460
G1 X98.330 Y99.571 E2.66104
G1 X98.397 Y99.365 E2.67775
G1 X98.489 Y99.169 E2.69447
G1 X98.605 Y98.986 E2.71119
G1 X98.743 Y98.820 E2.72790
G1 X98.901 Y98.671 E2.74462
G1 X99.076 Y98.544 E2.76134
G1 X99.266 Y98.440 E2.77805
G1 X99.467 Y98.360 E2.79477
G1 X99.677 Y98.306 E2.81148
G1 X99.888 Y98.279 E2.82793
G1 X100.046 Y98.283 E2.84007
G1 X100.145 Y98.327 F7800.000
G1 X100.154 Y99.799 F7800.000
G1 F3600
G1 X100.258 Y99.903 E2.85238
G1 X99.849 Y100.204 F7800.000
G1 F3600
G1 X99.742 Y100.097 E2.86497
G1 E1.86497 F1800.00000
G92 E0
G1 Z11.975 F7800.000
G1 X100.098 Y99.254 F7800.000
G1 E1.00000 F1800.00000
G1 F1800
G1 X100.233 Y99.283 E1.01131
G1 X100.404 Y99.363 E1.02674
G1 X100.610 Y99.557 E1.04981
G1 X100.730 Y99.812 E1.07288
G1 X100.748 Y100.095 E1.09595
G1 X100.661 Y100.363 E1.11902
G1 X100.481 Y100.581 E1.14210
G1 X100.233 Y100.717 E1.16517
G1 X99.953 Y100.753 E1.18824
G1 X99.679 Y100.682 E1.21131
G1 X99.450 Y100.516 E1.23438
G1 X99.299 Y100.278 E1.25746
G1 X99.246 Y100.000 E1.28053
G1 X99.299 Y99.722 E1.30360
G1 X99.450 Y99.484 E1.32667
G1 X99.679 Y99.318 E1.34974
G1 X99.859 Y99.259 E1.36517
G1 X100.023 Y99.252 E1.37857
G1 X100.159 Y98.767 F7800.000
G1 F1800
G1 X100.385 Y98.815 E1.39743
G1 X100.668 Y98.948 E1.42293
G1 X100.794 Y99.040 E1.43570
G1 X101.008 Y99.268 E1.46119
G1 X101.092 Y99.400 E1.47397
G1 X101.207 Y99.690 E1.49946
G1 X101.246 Y100.000 E1.52496
G1 X101.236 Y100.156 E1.53773
G1 X101.207 Y100.310 E1.55051
G1 X101.092 Y100.600 E1.57600
G1 X101.008 Y100.732 E1.58878
G1 X100.794 Y100.960 E1.61427
G1 X100.531 Y101.127 E1.63977
G1 X100.385 Y101.185 E1.65254
G1 X100.078 Y101.244 E1.67804
G1 X99.922 Y101.244 E1.69081
G1 X99.615 Y101.185 E1.71631
G1 X99.469 Y101.127 E1.72908
G1 X99.206 Y100.960 E1.75458
G1 X99.092 Y100.853 E1.76735
G1 X98.908 Y100.600 E1.79285
G1 X98.793 Y100.310 E1.81834
G1 X98.754 Y100.000 E1.84384
G1 X98.764 Y99.844 E1.85661
G1 X98.793 Y99.690 E1.86939
G1 X98.908 Y99.400 E1.89488
G1 X99.092 Y99.147 E1.92038
G1 X99.206 Y99.040 E1.93315
G1 X99.332 Y98.948 E1.94593
G1 X99.615 Y98.815 E1.97142
G1 X99.912 Y98.758 E1.99610
G1 X100.084 Y98.762 E2.01019
G1 X100.219 Y98.293 F7800.000
G1 F1800
G1 X100.533 Y98.360 E2.03497
G1 X100.734 Y98.440 E2.05168
G1 X100.924 Y98.544 E2.06840
G1 X101.099 Y98.671 E2.08511
G1 X101.257 Y98.820 E2.10183
G1 X101.395 Y98.986 E2.11855
G1 X101.511 Y99.169 E2.13526
G1 X101.603 Y99.365 E2.15198
G1 X101.670 Y99.571 E2.16870
G1 X101.711 Y99.784 E2.18541
G1 X101.724 Y100.000 E2.20213
G1 X101.711 Y100.216 E2.21884
G1 X101.670 Y100.429 E2.23556
G1 X101.603 Y100.635 E2.25228
G1 X101.511 Y100.831 E2.26899
G1 X101.395 Y101.014 E2.28571
G1 X101.257 Y101.180 E2.30243
G1 X101.099 Y101.329 E2.31914
G1 X100.924 Y101.456 E2.33586
G1 X100.734 Y101.560 E2.35257
G1 X100.533 Y101.640 E2.36929
G1 X100.323 Y101.694 E2.38601
G1 X100.108 Y101.721 E2.40272
G1 X99.892 Y101.721 E2.41944
G1 X99.677 Y101.694 E2.43615
G1 X99.467 Y101.640 E2.45287
G1 X99.266 Y101.560 E2.46959
G1 X99.076 Y101.456 E2.48630
G1 X98.901 Y101.329 E2.50302
G1 X98.743 Y101.180 E2.51974
G1 X98.605 Y101.014 E2.53645
G1 X98.489 Y100.831 E2.55317
G1 X98.397 Y100.635 E2.56988
G1 X98.330 Y100.429 E2.58660
G1 X98.289 Y100.216 E2.60332
G1 X98.276 Y100.000 E2.62003
G1 X98.289 Y99.784 E2.63675
G1 X98.330 Y99.571 E2.65347
G1 X98.397 Y99.365 E2.67018
G1 X98.489 Y99.169 E2.68690
G1 X98.605 Y98.986 E2.70361
G1 X98.743 Y98.820 E2.72033
G1 X98.901 Y98.671 E2.73705
G1 X99.076 Y98.544 E2.75376
G1 X99.266 Y98.440 E2.77048
G1 X99.467 Y98.360 E2.78719
G1 X99.677 Y98.306 E2.80391
G1 X99.888 Y98.279 E2.82034
G1 X100.144 Y98.286 E2.84013
G1 X100.264 Y98.388 F7800.000
G1 X99.890 Y99.752 F7800.000
G1 F3600
G1 X99.785 Y99.857 E2.85269
G1 X100.100 Y100.261 F7800.000
G1 F3600
G1 X100.204 Y100.156 E2.86513
G1 E1.86513 F1800.00000
G92 E0
G1 Z12.375 F7800.000
G1 X100.100 Y99.254 F7800.000
G1 E1.00000 F1800.00000
G1 F1800
G1 X100.233 Y99.283 E1.01114
G1 X100.404 Y99.363 E1.02658
G1 X100.610 Y99.557 E1.04965
G1 X100.730 Y99.812 E1.07272
G1 X100.748 Y100.095 E1.09579
G1 X100.661 Y100.363 E1.11886
G1 X100.481 Y100.581 E1.14193
G1 X100.233 Y100.717 E1.16500
G1 X99.953 Y100.753 E1.18808
G1 X99.767 Y100.717 E1.20351
G1 X99.596 Y100.637 E1.21894
G1 X99.390 Y100.443 E1.24201
G1 X99.270 Y100.188 E1.26508
G1 X99.249 Y100.053 E1.27622
G1 X99.255 Y99.889 E1.28961
G1 X99.339 Y99.637 E1.31130
G1 X99.519 Y99.419 E1.33437
G1 X99.767 Y99.283 E1.35744
G1 X99.936 Y99.249 E1.37149
G1 X100.025 Y99.252 E1.37875
G1 X100.161 Y98.767 F7800.000
G1 F1800
G1 X100.385 Y98.815 E1.39744
G1 X100.668 Y98.948 E1.42294
G1 X100.794 Y99.040 E1.43571
G1 X101.008 Y99.268 E1.46121
G1 X101.092 Y99.400 E1.47398
G1 X101.207 Y99.690 E1.49948
G1 X101.246 Y100.000 E1.52497
G1 X101.236 Y100.156 E1.53775
G1 X101.207 Y100.310 E1.55052
G1 X101.092 Y100.600 E1.57601
G1 X100.908 Y100.853 E1.60151
G1 X100.794 Y100.960 E1.61429
G1 X100.668 Y101.052 E1.62706
G1 X100.385 Y101.185 E1.65255
G1 X100.078 Y101.244 E1.67805
G1 X99.922 Y101.244 E1.69082
G1 X99.615 Y101.185 E1.71632
G1 X99.332 Y101.052 E1.74182
G1 X99.206 Y100.960 E1.75459
G1 X98.992 Y100.732 E1.78009
G1 X98.908 Y100.600 E1.79286
G1 X98.793 Y100.310 E1.81836
G1 X98.758 Y100.059 E1.83901
G1 X98.766 Y99.834 E1.85744
G1 X98.841 Y99.541 E1.88210
G1 X98.908 Y99.400 E1.89487
G1 X99.092 Y99.147 E1.92037
G1 X99.206 Y99.040 E1.93314
G1 X99.469 Y98.873 E1.95864
G1 X99.615 Y98.815 E1.97141
G1 X99.912 Y98.758 E1.99607
G1 X100.086 Y98.763 E2.01034
G1 X100.221 Y98.293 F7800.000
G1 F1800
G1 X100.533 Y98.360 E2.03496
G1 X100.734 Y98.440 E2.05168
G1 X100.924 Y98.544 E2.06839
G1 X101.099 Y98.671 E2.08511
G1 X101.257 Y98.820 E2.10183
G1 X101.395 Y98.986 E2.11854
G1 X101.511 Y99.169 E2.13526
G1 X101.603 Y99.365 E2.15198
G1 X101.670 Y99.571 E2.16869
G1 X101.711 Y99.784 E2.18541
G1 X101.724 Y100.000 E2.20212
G1 X101.711 Y100.216 E2.21884
G1 X101.670 Y100.429 E2.23556
G1 X101.603 Y100.635 E2.25227
G1 X101.511 Y100.831 E2.26899
G1 X101.395 Y101.014 E2.28571
G1 X101.257 Y101.180 E2.30242
G1 X101.099 Y101.329 E2.31914
G1 X100.924 Y101.456 E2.33585
G1 X100.734 Y101.560 E2.35257
G1 X100.533 Y101.640 E2.36929
G1 X100.323 Y101.694 E2.38600
G1 X100.108 Y101.721 E2.40272
G1 X99.892 Y101.721 E2.41943
G1 X99.677 Y101.694 E2.43615
G1 X99.467 Y101.640 E2.45287
G1 X99.266 Y101.560 E2.46958
G1 X99.076 Y101.456 E2.48630
G1 X98.901 Y101.329 E2.50301
G1 X98.743 Y101.180 E2.51973
G1 X98.605 Y101.014 E2.53645
G1 X98.489 Y100.831 E2.55316
G1 X98.397 Y100.635 E2.56988
G1 X98.330 Y100.429 E2.58660
G1 X98.280 Y100.066 E2.61488
G1 X98.290 Y99.780 E2.63695
G1 X98.330 Y99.571 E2.65337
G1 X98.397 Y99.365 E2.67009
G1 X98.489 Y99.169 E2.68680
G1 X98.605 Y98.986 E2.70352
G1 X98.743 Y98.820 E2.72024
G1 X98.901 Y98.671 E2.73695
G1 X99.076 Y98.544 E2.75367
G1 X99.266 Y98.440 E2.77038
G1 X99.467 Y98.360 E2.78710
G1 X99.677 Y98.306 E2.80382
G1 X99.888 Y98.279 E2.82024
G1 X100.146 Y98.286 E2.84020
G1 X100.266 Y98.386 F7800.000
G1 X100.154 Y99.799 F7800.000
G1 F3600
G1 X100.258 Y99.903 E2.85250
G1 X99.849 Y100.204 F7800.000
G1 F3600
G1 X99.742 Y100.097 E2.86509
G1 E1.86509 F1800.00000
G92 E0
G1 Z12.775 F7800.000
G1 X100.102 Y99.254 F7800.000
G1 E1.00000 F1800.00000
G1 F1800
G1 X100.233 Y99.283 E1.01098
G1 X100.404 Y99.363 E1.02641
G1 X100.610 Y99.557 E1.04948
G1 X100.730 Y99.812 E1.07255
G1 X100.748 Y100.095 E1.09562
G1 X100.661 Y100.363 E1.11869
G1 X100.585 Y100.474 E1.12967
G1 X100.467 Y100.591 E1.14326
G1 X100.233 Y100.717 E1.16491
G1 X99.953 Y100.753 E1.18798
G1 X99.767 Y100.717 E1.20342
G1 X99.596 Y100.637 E1.21885
G1 X99.390 Y100.443 E1.24192
G1 X99.270 Y100.188 E1.26499
G1 X99.249 Y100.055 E1.27597
G1 X99.255 Y99.888 E1.28956
G1 X99.339 Y99.637 E1.31121
G1 X99.507 Y99.431 E1.33286
G1 X99.644 Y99.337 E1.34645
G1 X99.767 Y99.283 E1.35743
G1 X99.935 Y99.250 E1.37143
G1 X100.027 Y99.252 E1.37890
G1 X100.115 Y98.764 F7800.000
G1 F1800
G1 X100.385 Y98.815 E1.40131
G1 X100.668 Y98.948 E1.42680
G1 X100.794 Y99.040 E1.43957
G1 X101.008 Y99.268 E1.46507
G1 X101.092 Y99.400 E1.47784
G1 X101.207 Y99.690 E1.50334
G1 X101.246 Y100.000 E1.52884
G1 X101.236 Y100.156 E1.54161
G1 X101.207 Y100.310 E1.55438
G1 X101.092 Y100.600 E1.57988
G1 X100.948 Y100.805 E1.60036
G1 X100.786 Y100.966 E1.61899
G1 X100.531 Y101.127 E1.64362
G1 X100.385 Y101.185 E1.65639
G1 X100.078 Y101.244 E1.68189
G1 X99.922 Y101.244 E1.69466
G1 X99.615 Y101.185 E1.72016
G1 X99.332 Y101.052 E1.74566
G1 X99.206 Y100.960 E1.75843
G1 X98.992 Y100.732 E1.78393
G1 X98.908 Y100.600 E1.79670
G1 X98.793 Y100.310 E1.82220
G1 X98.758 Y100.062 E1.84267
G1 X98.766 Y99.833 E1.86130
G1 X98.841 Y99.541 E1.88594
G1 X98.908 Y99.400 E1.89871
G1 X98.992 Y99.268 E1.91148
G1 X99.198 Y99.047 E1.93612
G1 X99.386 Y98.918 E1.95474
G1 X99.615 Y98.815 E1.97522
G1 X99.911 Y98.758 E1.99986
G1 X100.040 Y98.761 E2.01041
G1 X100.129 Y98.286 F7800.000
G1 F1800
G1 X100.323 Y98.306 E2.02549
G1 X100.533 Y98.360 E2.04220
G1 X100.734 Y98.440 E2.05892
G1 X100.924 Y98.544 E2.07563
G1 X101.099 Y98.671 E2.09235
G1 X101.257 Y98.820 E2.10907
G1 X101.395 Y98.986 E2.12578
G1 X101.511 Y99.169 E2.14250
G1 X101.603 Y99.365 E2.15922
G1 X101.670 Y99.571 E2.17593
G1 X101.711 Y99.784 E2.19265
G1 X101.724 Y100.000 E2.20936
G1 X101.711 Y100.216 E2.22608
G1 X101.670 Y100.429 E2.24280
G1 X101.603 Y100.635 E2.25951
G1 X101.511 Y100.831 E2.27623
